;FLAVOR:Marlin
;TIME:5097
;Filament used: 4.69486m
;Layer height: 0.2
;MINX:64.9
;MINY:81.4
;MINZ:0.3
;MAXX:118.1
;MAXY:113.6
;MAXZ:94.1
;Generated with Cura_SteamEngine master
M140 S50
M105
M190 S50
M104 S200
M105
M109 S200
M82 ;absolute extrusion mode
G28 ;Home
G1 Z15.0 F6000 ;Move the platform down 15mm
;Prime the extruder
G92 E0
G1 F200 E3
G92 E0
G92 E0
G92 E0
G1 F1500 E-6.5
;LAYER_COUNT:470
;LAYER:0
M107
M204 S900
G0 F3600 X68.336 Y92.137 Z0.3
;TYPE:SKIRT
G1 F1500 E0
G1 F2400 X68.788 Y91.848 E0.02944
G1 X69.278 Y91.63 E0.05887
G1 X70.036 Y91.447 E0.10167
G1 X70.415 Y91.404 E0.1226
G1 X72.823 Y91.231 E0.25509
G1 X75.533 Y90.959 E0.40456
G1 X78.22 Y90.612 E0.55325
G1 X80.901 Y90.19 E0.70219
G1 X83.602 Y89.685 E0.85299
G1 X86.278 Y89.106 E1.00324
G1 X88.876 Y88.467 E1.15007
G1 X91.539 Y87.73 E1.3017
G1 X94.17 Y86.923 E1.45273
G1 X96.718 Y86.061 E1.60035
G1 X99.277 Y85.114 E1.75009
G1 X101.821 Y84.09 E1.90059
G1 X104.326 Y82.998 E2.05056
G1 X106.999 Y81.742 E2.21264
G1 X107.501 Y81.554 E2.24205
G1 X108.025 Y81.442 E2.27146
G1 X108.728 Y81.401 E2.31011
G1 X113.845 Y81.4 E2.59092
G1 X114.543 Y81.41 E2.62923
G1 X115.077 Y81.458 E2.65866
G1 X115.598 Y81.584 E2.68807
G1 X116.095 Y81.787 E2.71753
G1 X116.556 Y82.061 E2.74696
G1 X116.971 Y82.4 E2.77637
G1 X117.331 Y82.798 E2.80582
G1 X117.628 Y83.244 E2.83523
G1 X117.856 Y83.73 E2.86469
G1 X118.008 Y84.244 E2.89411
G1 X118.09 Y84.909 E2.93088
G1 X118.1 Y85.33 E2.95399
G1 X118.1 Y88.344 E3.11939
G1 X118.09 Y89.045 E3.15787
G1 X118.029 Y89.652 E3.19135
G1 X117.804 Y90.862 E3.25889
G1 X117.346 Y93.541 E3.40804
G1 X117.179 Y94.715 E3.47312
G1 X117.05 Y95.532 E3.51851
G1 X116.899 Y96.153 E3.55359
G1 X116.47 Y97.428 E3.62741
G1 X116.229 Y98.174 E3.67043
G1 X115.902 Y99.144 E3.72661
G1 X115.694 Y99.638 E3.75603
G1 X115.414 Y100.096 E3.78549
G1 X115.069 Y100.506 E3.81489
G1 X114.592 Y100.917 E3.84945
G1 X114.308 Y101.121 E3.86864
G1 X112.082 Y102.771 E4.0207
G1 X111.501 Y103.226 E4.0612
G1 X110.675 Y103.855 E4.11817
G1 X110.225 Y104.147 E4.14761
G1 X109.503 Y104.447 E4.19052
G1 X108.392 Y104.771 E4.25403
G1 X108.257 Y104.808 E4.26171
G1 X105.673 Y105.597 E4.40998
G1 X103.086 Y106.465 E4.55974
G1 X100.538 Y107.401 E4.7087
G1 X97.993 Y108.419 E4.85913
G1 X95.476 Y109.511 E5.0097
G1 X93.021 Y110.657 E5.15839
G1 X90.59 Y111.877 E5.30766
G1 X88.488 Y113.012 E5.43875
G1 X88.167 Y113.18 E5.45864
G1 X87.675 Y113.392 E5.48804
G1 X87.157 Y113.529 E5.51744
G1 X86.608 Y113.588 E5.54774
G1 X86.17 Y113.6 E5.57179
G1 X83.156 Y113.6 E5.7372
G1 X82.454 Y113.59 E5.77573
G1 X81.945 Y113.546 E5.80376
G1 X81.536 Y113.459 E5.82671
G1 X80.285 Y113.114 E5.89793
G1 X80.165 Y113.091 E5.90463
G1 X78.455 Y112.627 E6.00187
G1 X75.754 Y111.977 E6.15433
G1 X73.111 Y111.422 E6.30254
G1 X70.465 Y110.943 E6.45011
G1 X69.4 Y110.786 E6.50919
G1 X69.245 Y110.751 E6.51791
G1 X67.947 Y110.546 E6.59002
G1 X67.425 Y110.423 E6.61946
G1 X66.927 Y110.224 E6.64889
G1 X66.464 Y109.953 E6.67833
G1 X66.047 Y109.616 E6.70775
G1 X65.684 Y109.222 E6.73715
G1 X65.384 Y108.777 E6.76661
G1 X65.153 Y108.293 E6.79604
G1 X64.997 Y107.78 E6.82546
G1 X64.91 Y107.088 E6.86374
G1 X64.9 Y106.658 E6.88734
G1 X64.9 Y97.656 E7.38137
G1 X64.91 Y96.953 E7.41995
G1 X64.958 Y96.419 E7.44937
G1 X65.084 Y95.897 E7.47884
G1 X65.287 Y95.401 E7.50825
G1 X65.561 Y94.94 E7.53769
G1 X65.939 Y94.484 E7.57019
G1 X66.426 Y93.988 E7.60834
G1 X67.523 Y92.905 E7.69294
G1 X67.932 Y92.49 E7.72491
G1 X68.336 Y92.137 E7.75435
G0 F3600 X68.599 Y92.44
G1 F2400 X69.029 Y92.173 E7.78213
G1 X69.495 Y91.978 E7.80985
G1 X70.087 Y91.844 E7.84316
G1 X70.444 Y91.803 E7.86289
G1 X72.855 Y91.629 E7.99554
G1 X75.553 Y91.359 E8.14435
G1 X78.297 Y91.005 E8.29618
G1 X81.005 Y90.578 E8.44663
G1 X83.647 Y90.084 E8.59414
G1 X86.352 Y89.499 E8.74602
G1 X89.014 Y88.845 E8.89645
G1 X91.649 Y88.116 E9.04649
G1 X94.278 Y87.309 E9.19741
G1 X96.849 Y86.439 E9.34636
G1 X99.417 Y85.489 E9.49663
G1 X101.994 Y84.452 E9.64907
G1 X104.477 Y83.369 E9.79773
G1 X107.167 Y82.105 E9.96085
G1 X107.641 Y81.93 E9.98857
G1 X108.137 Y81.831 E10.01633
G1 X108.739 Y81.801 E10.04941
G1 X113.839 Y81.8 E10.32929
G1 X114.537 Y81.81 E10.3676
G1 X115.04 Y81.857 E10.39533
G1 X115.53 Y81.983 E10.42309
G1 X115.994 Y82.185 E10.45087
G1 X116.42 Y82.457 E10.4786
G1 X116.798 Y82.792 E10.50632
G1 X117.118 Y83.183 E10.53405
G1 X117.373 Y83.62 E10.56182
G1 X117.556 Y84.091 E10.58955
G1 X117.663 Y84.585 E10.61729
G1 X117.699 Y85.24 E10.65329
G1 X117.7 Y88.339 E10.82336
G1 X117.69 Y89.04 E10.86183
G1 X117.636 Y89.579 E10.89156
G1 X117.411 Y90.789 E10.9591
G1 X116.948 Y93.494 E11.10971
G1 X116.784 Y94.653 E11.17395
G1 X116.655 Y95.47 E11.21934
G1 X116.52 Y96.025 E11.25069
G1 X116.091 Y97.3 E11.32451
G1 X115.85 Y98.046 E11.36753
G1 X115.523 Y99.016 E11.42371
G1 X115.324 Y99.481 E11.45147
G1 X115.055 Y99.909 E11.47921
G1 X114.721 Y100.289 E11.50697
G1 X114.031 Y100.828 E11.55503
G1 X111.837 Y102.455 E11.70492
G1 X111.259 Y102.908 E11.74523
G1 X110.433 Y103.537 E11.8022
G1 X110.008 Y103.81 E11.82992
G1 X109.391 Y104.063 E11.86652
G1 X108.286 Y104.385 E11.92968
G1 X108.172 Y104.416 E11.93617
G1 X105.544 Y105.218 E12.08696
G1 X102.926 Y106.097 E12.23851
G1 X100.387 Y107.03 E12.38696
G1 X97.851 Y108.044 E12.53685
G1 X95.34 Y109.133 E12.68705
G1 X92.837 Y110.301 E12.83863
G1 X90.399 Y111.526 E12.98837
G1 X88.303 Y112.657 E13.11907
G1 X87.982 Y112.825 E13.13896
G1 X87.517 Y113.023 E13.16669
G1 X87.026 Y113.146 E13.19447
G1 X86.268 Y113.199 E13.23617
G1 X83.161 Y113.2 E13.40668
G1 X82.459 Y113.19 E13.44521
G1 X82.005 Y113.151 E13.47022
G1 X81.642 Y113.073 E13.49059
G1 X80.357 Y112.719 E13.56374
G1 X80.269 Y112.705 E13.56863
G1 X78.54 Y112.236 E13.66694
G1 X75.858 Y111.59 E13.81834
G1 X73.194 Y111.031 E13.96772
G1 X70.505 Y110.544 E14.11769
G1 X69.459 Y110.39 E14.17571
G1 X69.317 Y110.357 E14.18371
G1 X68.01 Y110.151 E14.25633
G1 X67.518 Y110.033 E14.28409
G1 X67.051 Y109.839 E14.31185
G1 X66.621 Y109.574 E14.33957
G1 X66.237 Y109.244 E14.36735
G1 X65.911 Y108.858 E14.39508
G1 X65.649 Y108.426 E14.42281
G1 X65.459 Y107.957 E14.45058
G1 X65.344 Y107.465 E14.4783
G1 X65.301 Y106.745 E14.51789
G1 X65.3 Y97.661 E15.01641
G1 X65.31 Y96.958 E15.055
G1 X65.357 Y96.455 E15.08272
G1 X65.483 Y95.965 E15.11049
G1 X65.685 Y95.502 E15.13821
G1 X65.956 Y95.075 E15.16596
G1 X66.225 Y94.764 E15.18853
G1 X66.707 Y94.273 E15.22629
G1 X67.804 Y93.19 E15.31088
G1 X68.217 Y92.771 E15.34317
G1 X68.599 Y92.44 E15.37091
G1 F1500 E8.87091
;MESH:Guybrush_1.0.stl
G0 F3600 X71.114 Y94.335
G0 X71.114 Y95.614
G0 X79.83 Y97.67
G1 F1500 E15.37091
G0 F3600 X79.9 Y97.6
;TYPE:WALL-INNER
G1 F2400 X85.9 Y97.6 E15.70019
G1 X85.9 Y109.4 E16.34776
G1 X83.1 Y109.4 E16.50142
G1 X83.1 Y107.4 E16.61118
G1 X77.1 Y107.4 E16.94046
G1 X77.1 Y106.4 E16.99534
G1 X69.1 Y106.4 E17.43437
G1 X69.1 Y97.6 E17.91731
G1 X71.1 Y97.6 E18.02707
G1 X71.1 Y95.6 E18.13682
G1 X79.9 Y95.6 E18.61976
G1 X79.9 Y97.6 E18.72952
G0 F3600 X80.3 Y97.2
;TYPE:WALL-OUTER
G1 F2400 X86.3 Y97.2 E19.05879
G1 X86.3 Y109.8 E19.75027
G1 X82.7 Y109.8 E19.94784
G1 X82.7 Y107.8 E20.0576
G1 X76.7 Y107.8 E20.38687
G1 X76.7 Y106.8 E20.44175
G1 X68.7 Y106.8 E20.88078
G1 X68.7 Y97.2 E21.40763
G1 X70.7 Y97.2 E21.51738
G1 X70.7 Y95.2 E21.62714
G1 X80.3 Y95.2 E22.15398
G1 X80.3 Y97.2 E22.26374
G0 F3600 X80.5 Y97.2
G0 X80.5 Y97.7
G0 X79.51 Y97.99
;TYPE:SKIN
G1 F2400 X85.51 Y97.99 E22.59302
G1 X85.51 Y109.01 E23.19779
G1 X83.49 Y109.01 E23.30864
G1 X83.49 Y107.01 E23.4184
G1 X77.49 Y107.01 E23.74768
G1 X77.49 Y106.01 E23.80255
G1 X69.49 Y106.01 E24.24159
G1 X69.49 Y97.99 E24.68172
G1 X71.49 Y97.99 E24.79148
G1 X71.49 Y95.99 E24.90124
G1 X79.51 Y95.99 E25.34137
G1 X79.51 Y97.99 E25.45113
G0 F3600 X85.33 Y98.34
G1 F2400 X85.158 Y98.169 E25.46444
G0 F3600 X84.593 Y98.169
G1 F2400 X85.33 Y98.906 E25.52164
G0 F3600 X85.33 Y99.472
G1 F2400 X84.027 Y98.169 E25.62276
G0 F3600 X83.461 Y98.169
G1 F2400 X85.33 Y100.037 E25.76778
G0 F3600 X85.33 Y100.603
G1 F2400 X82.896 Y98.169 E25.95668
G0 F3600 X82.33 Y98.169
G1 F2400 X85.33 Y101.169 E26.18952
G0 F3600 X85.33 Y101.734
G1 F2400 X81.764 Y98.169 E26.46624
G0 F3600 X81.199 Y98.169
G1 F2400 X85.33 Y102.3 E26.78685
G0 F3600 X85.33 Y102.866
G1 F2400 X80.633 Y98.169 E27.15139
G0 F3600 X80.067 Y98.169
G1 F2400 X85.33 Y103.432 E27.55985
G0 F3600 X85.33 Y103.997
G1 F2400 X79.502 Y98.169 E28.01217
G0 F3600 X79.33 Y97.997
G1 F2400 X77.501 Y96.169 E28.15408
G0 F3600 X76.936 Y96.169
G1 F2400 X85.33 Y104.563 E28.80555
G0 F3600 X85.33 Y105.129
G1 F2400 X76.37 Y96.169 E29.50094
G0 F3600 X75.804 Y96.169
G1 F2400 X85.33 Y105.694 E30.24023
G0 F3600 X85.33 Y106.26
G1 F2400 X75.238 Y96.169 E31.02344
G0 F3600 X74.673 Y96.169
G1 F2400 X85.33 Y106.826 E31.85054
G0 F3600 X85.33 Y107.391
G1 F2400 X74.107 Y96.169 E32.72153
G0 F3600 X73.541 Y96.169
G1 F2400 X85.33 Y107.957 E33.63644
G0 F3600 X85.33 Y108.523
G1 F2400 X83.669 Y106.862 E33.76535
G1 X83.635 Y106.828
G1 X72.976 Y96.169 E34.59261
G0 F3600 X72.41 Y96.169
G1 F2400 X83.07 Y106.828 E35.4199
G0 F3600 X82.504 Y106.828
G1 F2400 X71.844 Y96.169 E36.2472
G0 F3600 X71.669 Y96.559
G1 F2400 X81.938 Y106.828 E37.04418
G0 F3600 X81.373 Y106.828
G1 F2400 X71.669 Y97.125 E37.79728
G0 F3600 X71.669 Y97.691
G1 F2400 X80.807 Y106.828 E38.50645
G0 F3600 X80.241 Y106.828
G1 F2400 X71.582 Y98.169 E39.17848
G0 F3600 X71.016 Y98.169
G1 F2400 X79.676 Y106.828 E39.85056
G0 F3600 X79.11 Y106.828
G1 F2400 X70.451 Y98.169 E40.52259
G0 F3600 X69.885 Y98.169
G1 F2400 X77.544 Y105.829 E41.11705
G1 X77.67 Y105.954
G1 X78.544 Y106.828 E41.18488
G0 F3600 X77.979 Y106.828
G1 F2400 X77.67 Y106.519 E41.20886
G0 F3600 X76.979 Y105.829
G1 F2400 X69.669 Y98.519 E41.7762
G0 F3600 X69.669 Y99.085
G1 F2400 X76.413 Y105.829 E42.29961
G0 F3600 X75.847 Y105.829
G1 F2400 X69.669 Y99.651 E42.77909
G0 F3600 X69.669 Y100.216
G1 F2400 X75.282 Y105.829 E43.21472
G0 F3600 X74.716 Y105.829
G1 F2400 X69.669 Y100.782 E43.60642
G0 F3600 X69.669 Y101.348
G1 F2400 X74.15 Y105.829 E43.9542
G0 F3600 X73.585 Y105.829
G1 F2400 X69.669 Y101.913 E44.25812
G0 F3600 X69.669 Y102.479
G1 F2400 X73.019 Y105.829 E44.51812
G0 F3600 X72.453 Y105.829
G1 F2400 X69.669 Y103.045 E44.73419
G0 F3600 X69.669 Y103.61
G1 F2400 X71.888 Y105.829 E44.9064
G0 F3600 X71.322 Y105.829
G1 F2400 X69.669 Y104.176 E45.0347
G0 F3600 X69.669 Y104.742
G1 F2400 X70.756 Y105.829 E45.11906
G0 F3600 X70.19 Y105.829
G1 F2400 X69.669 Y105.307 E45.15953
G0 F3600 X78.067 Y96.169
G1 F2400 X79.33 Y97.432 E45.25756
G0 F3600 X79.33 Y96.866
G1 F2400 X78.633 Y96.169 E45.31165
G0 F3600 X79.198 Y96.169
G1 F2400 X79.33 Y96.3 E45.32186
G0 F3600 X83.669 Y107.428
G1 F2400 X85.07 Y108.829 E45.43059
G0 F3600 X84.504 Y108.829
G1 F2400 X83.669 Y107.994 E45.49539
G0 F3600 X83.669 Y108.559
G1 F2400 X83.939 Y108.829 E45.51635
G1 F1500 E39.01635
G0 F3600 X85.886 Y97.614
G0 X87.165 Y97.614
G0 X99.835 Y97.614
G0 X101.12 Y97.614
G0 X107.83 Y97.33
G1 F1500 E45.51635
G0 F3600 X107.9 Y97.4
;TYPE:WALL-INNER
G1 F2400 X107.9 Y100.4 E45.68099
G1 X101.1 Y100.4 E46.05417
G1 X101.1 Y91.6 E46.5371
G1 X105.1 Y91.6 E46.75662
G1 X105.1 Y89.6 E46.86638
G1 X107.1 Y89.6 E46.97614
G1 X107.1 Y87.6 E47.08589
G1 X109.1 Y87.6 E47.19565
G1 X109.1 Y85.6 E47.30541
G1 X113.9 Y85.6 E47.56883
G1 X113.9 Y88.4 E47.72249
G1 X112.9 Y88.4 E47.77737
G1 X112.9 Y94.4 E48.10665
G1 X111.9 Y94.4 E48.16153
G1 X111.9 Y97.4 E48.32617
G1 X107.9 Y97.4 E48.54568
G0 F3600 X108.3 Y97.8
;TYPE:WALL-OUTER
G1 F2400 X108.3 Y100.8 E48.71032
G1 X100.7 Y100.8 E49.1274
G1 X100.7 Y91.2 E49.65424
G1 X104.7 Y91.2 E49.87376
G1 X104.7 Y89.2 E49.98352
G1 X106.7 Y89.2 E50.09328
G1 X106.7 Y87.2 E50.20303
G1 X108.7 Y87.2 E50.31279
G1 X108.7 Y85.2 E50.42255
G1 X114.3 Y85.2 E50.72988
G1 X114.3 Y88.8 E50.92744
G1 X113.3 Y88.8 E50.98232
G1 X113.3 Y94.8 E51.31159
G1 X112.3 Y94.8 E51.36647
G1 X112.3 Y97.8 E51.53111
G1 X108.3 Y97.8 E51.75063
G0 F3600 X108.3 Y98
G0 X107.8 Y98
G0 X107.51 Y97.01
;TYPE:SKIN
G1 F2400 X107.51 Y100.01 E51.91527
G1 X101.49 Y100.01 E52.24564
G1 X101.49 Y91.99 E52.68577
G1 X105.49 Y91.99 E52.90529
G1 X105.49 Y89.99 E53.01505
G1 X107.49 Y89.99 E53.1248
G1 X107.49 Y87.99 E53.23456
G1 X109.49 Y87.99 E53.34432
G1 X109.49 Y85.99 E53.45408
G1 X113.51 Y85.99 E53.67469
G1 X113.51 Y88.01 E53.78555
G1 X112.51 Y88.01 E53.84043
G1 X112.51 Y94.01 E54.1697
G1 X111.51 Y94.01 E54.22458
G1 X111.51 Y97.01 E54.38922
G1 X107.51 Y97.01 E54.60874
G0 F3600 X102.092 Y99.83
G1 F2400 X101.669 Y99.406 E54.64161
G0 F3600 X101.669 Y98.84
G1 F2400 X102.658 Y99.83 E54.7184
G0 F3600 X103.224 Y99.83
G1 F2400 X101.669 Y98.275 E54.83909
G0 F3600 X101.669 Y97.709
G1 F2400 X103.789 Y99.83 E55.00366
G0 F3600 X104.355 Y99.83
G1 F2400 X101.669 Y97.143 E55.21216
G0 F3600 X101.669 Y96.578
G1 F2400 X104.921 Y99.83 E55.46455
G0 F3600 X105.486 Y99.83
G1 F2400 X101.669 Y96.012 E55.76083
G0 F3600 X101.669 Y95.446
G1 F2400 X106.052 Y99.83 E56.10104
G0 F3600 X106.618 Y99.83
G1 F2400 X101.669 Y94.881 E56.48514
G0 F3600 X101.669 Y94.315
G1 F2400 X107.183 Y99.83 E56.91312
G0 F3600 X107.329 Y99.41
G1 F2400 X101.669 Y93.749 E57.35244
G0 F3600 X101.669 Y93.183
G1 F2400 X107.329 Y98.844 E57.79176
G0 F3600 X107.329 Y98.278
G1 F2400 X101.669 Y92.618 E58.23104
G0 F3600 X101.787 Y92.17
G1 F2400 X107.329 Y97.712 E58.66116
G0 F3600 X107.329 Y97.147
G1 F2400 X102.352 Y92.17 E59.04742
G0 F3600 X102.918 Y92.17
G1 F2400 X107.577 Y96.829 E59.40901
G0 F3600 X108.143 Y96.829
G1 F2400 X103.484 Y92.17 E59.7706
G0 F3600 X104.05 Y92.17
G1 F2400 X108.709 Y96.829 E60.13219
G0 F3600 X109.274 Y96.829
G1 F2400 X104.615 Y92.17 E60.49378
G0 F3600 X105.181 Y92.17
G1 F2400 X109.84 Y96.829 E60.85537
G0 F3600 X110.406 Y96.829
G1 F2400 X105.669 Y92.092 E61.22301
G0 F3600 X105.669 Y91.527
G1 F2400 X110.971 Y96.829 E61.63451
G0 F3600 X111.329 Y96.621
G1 F2400 X105.669 Y90.961 E62.07379
G0 F3600 X105.669 Y90.395
G1 F2400 X111.329 Y96.056 E62.5131
G0 F3600 X111.329 Y95.49
G1 F2400 X106.009 Y90.17 E62.92599
G0 F3600 X106.575 Y90.17
G1 F2400 X111.329 Y94.924 E63.29496
G0 F3600 X111.329 Y94.359
G1 F2400 X107.14 Y90.17 E63.62007
G0 F3600 X107.669 Y90.132
G1 F2400 X111.366 Y93.83 E63.90703
G0 F3600 X111.932 Y93.83
G1 F2400 X107.669 Y89.567 E64.23789
G0 F3600 X107.669 Y89.001
G1 F2400 X112.329 Y93.661 E64.59956
G0 F3600 X112.329 Y93.096
G1 F2400 X107.669 Y88.435 E64.96126
G0 F3600 X107.969 Y88.17
G1 F2400 X112.329 Y92.53 E65.29965
G0 F3600 X112.329 Y91.964
G1 F2400 X108.535 Y88.17 E65.5941
G0 F3600 X109.1 Y88.17
G1 F2400 X112.329 Y91.399 E65.84471
G0 F3600 X112.329 Y90.833
G1 F2400 X109.666 Y88.17 E66.05139
G0 F3600 X109.669 Y87.607
G1 F2400 X112.329 Y90.267 E66.25783
G0 F3600 X112.329 Y89.702
G1 F2400 X109.669 Y87.042 E66.46428
G0 F3600 X109.669 Y86.476
G1 F2400 X112.329 Y89.136 E66.67072
G0 F3600 X112.329 Y88.57
G1 F2400 X109.928 Y86.169 E66.85706
G0 F3600 X110.493 Y86.169
G1 F2400 X112.329 Y88.005 E66.99956
G0 F3600 X112.719 Y87.829
G1 F2400 X111.059 Y86.169 E67.12839
G0 F3600 X111.625 Y86.169
G1 F2400 X113.285 Y87.829 E67.25723
G0 F3600 X113.329 Y87.307
G1 F2400 X112.19 Y86.169 E67.34559
G0 F3600 X112.756 Y86.169
G1 F2400 X113.329 Y86.742 E67.39006
G1 X113.399 Y86.812
G1 F1500 E60.89006
;MESH:NONMESH
G0 F600 X113.399 Y86.812 Z0.5
G0 F3600 X107.114 Y89.614
G0 X105.847 Y88.347
G0 X103.847 Y88.347
G0 X100.247 Y90.147
G0 X87.165 Y97.614
G0 X85.886 Y97.614
G0 X79.83 Y97.67
G1 F1500 E67.39006
G0 F3600 X79.9 Y97.6
;TIME_ELAPSED:44.353647
;LAYER:1
M106 S191.2
;TYPE:WALL-INNER
;MESH:Guybrush_1.0.stl
G1 X85.9 Y97.6 E67.60957
G1 X85.9 Y109.4 E68.04129
G1 X83.1 Y109.4 E68.14373
G1 X83.1 Y107.4 E68.2169
G1 X77.1 Y107.4 E68.43642
G1 X77.1 Y106.4 E68.47301
G1 X69.1 Y106.4 E68.7657
G1 X69.1 Y97.6 E69.08765
G1 X71.1 Y97.6 E69.16083
G1 X71.1 Y95.6 E69.234
G1 X79.9 Y95.6 E69.55596
G1 X79.9 Y97.6 E69.62913
G0 F5400 X80.3 Y97.2
;TYPE:WALL-OUTER
G1 F2400 X86.3 Y97.2 E69.84865
G1 X86.3 Y109.8 E70.30963
G1 X82.7 Y109.8 E70.44134
G1 X82.7 Y107.8 E70.51451
G1 X76.7 Y107.8 E70.73403
G1 X76.7 Y106.8 E70.77062
G1 X68.7 Y106.8 E71.06331
G1 X68.7 Y97.2 E71.41453
G1 X70.7 Y97.2 E71.48771
G1 X70.7 Y95.2 E71.56088
G1 X80.3 Y95.2 E71.91211
G1 X80.3 Y97.2 E71.98528
G0 F5400 X80.5 Y97.2
G0 X80.5 Y97.7
G0 X79.51 Y97.99
;TYPE:SKIN
