;FLAVOR:Marlin
;TIME:10212
;Filament used: 10.0775m
;Layer height: 0.2
;MINX:56.2
;MINY:84.7
;MINZ:0.3
;MAXX:123.8
;MAXY:110.3
;MAXZ:117.9
;Generated with Cura_SteamEngine master
M140 S50
M105
M190 S50
M104 S205
M105
M109 S205
M82 ;absolute extrusion mode
G28 ;Home
G1 Z15.0 F6000 ;Move the platform down 15mm
;Prime the extruder
G92 E0
G1 F200 E3
G92 E0
G92 E0
G92 E0
G1 F1500 E-6.5
;LAYER_COUNT:589
;LAYER:0
M107
M204 S1000
G0 F3600 X59.832 Y86.639 Z0.3
M204 S3000
;TYPE:SKIRT
G1 F1500 E0
G1 F1800 X60.31 Y86.336 E0.02824
G1 X60.818 Y86.112 E0.05593
G1 X61.336 Y85.973 E0.08269
G1 X61.909 Y85.91 E0.11145
G1 X62.33 Y85.9 E0.13246
G1 X77.345 Y85.9 E0.88156
G1 X78.043 Y85.91 E0.91639
G1 X78.343 Y85.927 E0.93138
G1 X79.523 Y86.043 E0.99053
G1 X82.249 Y86.274 E1.12702
G1 X84.938 Y86.426 E1.26139
G1 X87.706 Y86.503 E1.39954
G1 X90.401 Y86.503 E1.53399
G1 X93.164 Y86.424 E1.6719
G1 X95.861 Y86.27 E1.80667
G1 X98.577 Y86.039 E1.94266
G1 X99.556 Y85.935 E1.99178
G1 X100.229 Y85.901 E2.0254
G1 X113.344 Y85.9 E2.67971
G1 X114.045 Y85.91 E2.71468
G1 X114.58 Y85.958 E2.74148
G1 X115.101 Y86.084 E2.76822
G1 X115.597 Y86.287 E2.79496
G1 X116.058 Y86.561 E2.82172
G1 X116.474 Y86.9 E2.84849
G1 X116.834 Y87.297 E2.87523
G1 X117.231 Y87.934 E2.91267
G1 X117.818 Y89.14 E2.97959
G1 X117.862 Y89.213 E2.98384
G1 X118.191 Y89.899 E3.0218
G1 X119.198 Y91.873 E3.13236
G1 X119.405 Y92.368 E3.15913
G1 X119.536 Y92.888 E3.18588
G1 X119.588 Y93.396 E3.21136
G1 X119.6 Y93.83 E3.23302
G1 X119.6 Y102.844 E3.68273
G1 X119.59 Y103.546 E3.71775
G1 X119.542 Y104.08 E3.7445
G1 X119.416 Y104.602 E3.77129
G1 X119.213 Y105.098 E3.79803
G1 X118.939 Y105.559 E3.82479
G1 X118.6 Y105.975 E3.85156
G1 X118.089 Y106.42 E3.88536
G1 X117.763 Y106.654 E3.90538
G1 X115.582 Y108.271 E4.04084
G1 X115.002 Y108.725 E4.07759
G1 X114.178 Y109.353 E4.12927
G1 X113.729 Y109.646 E4.15602
G1 X113.241 Y109.868 E4.18277
G1 X112.725 Y110.015 E4.20954
G1 X112.106 Y110.088 E4.24063
G1 X111.67 Y110.1 E4.26239
G1 X100.655 Y110.1 E4.81193
G1 X99.958 Y110.09 E4.84671
G1 X99.658 Y110.073 E4.8617
G1 X98.477 Y109.957 E4.92091
G1 X95.751 Y109.726 E5.05739
G1 X93.062 Y109.574 E5.19176
G1 X90.294 Y109.497 E5.32991
G1 X87.599 Y109.497 E5.46437
G1 X84.836 Y109.576 E5.60227
G1 X82.139 Y109.73 E5.73704
G1 X79.423 Y109.961 E5.87303
G1 X78.444 Y110.065 E5.92215
G1 X77.771 Y110.099 E5.95577
G1 X62.656 Y110.1 E6.70986
G1 X61.954 Y110.09 E6.74489
G1 X61.42 Y110.042 E6.77164
G1 X60.898 Y109.916 E6.79843
G1 X60.393 Y109.709 E6.82565
G1 X59.828 Y109.426 E6.85718
G1 X59.416 Y109.226 E6.88003
G1 X58.389 Y108.709 E6.93739
G1 X57.93 Y108.432 E6.96414
G1 X57.516 Y108.091 E6.9909
G1 X57.158 Y107.692 E7.01764
G1 X56.863 Y107.244 E7.0444
G1 X56.637 Y106.757 E7.07119
G1 X56.487 Y106.243 E7.0979
G1 X56.409 Y105.582 E7.13111
G1 X56.4 Y105.17 E7.15167
G1 X56.4 Y92.121 E7.80269
G1 X56.41 Y91.45 E7.83617
G1 X56.458 Y90.916 E7.86291
G1 X56.585 Y90.395 E7.88967
G1 X56.788 Y89.899 E7.91641
G1 X57.062 Y89.438 E7.94316
G1 X57.439 Y88.984 E7.9726
G1 X57.926 Y88.488 E8.00728
G1 X58.986 Y87.441 E8.08161
G1 X59.428 Y86.992 E8.11305
G1 X59.832 Y86.639 E8.13981
M204 S1000
G0 F3600 X60.096 Y86.942
M204 S3000
G1 F1800 X60.514 Y86.681 E8.1644
G1 X60.978 Y86.48 E8.18963
G1 X61.468 Y86.355 E8.21486
G1 X62.24 Y86.301 E8.25346
G1 X77.339 Y86.3 E9.00676
G1 X78.037 Y86.31 E9.04158
G1 X78.304 Y86.325 E9.05493
G1 X79.458 Y86.438 E9.11277
G1 X82.226 Y86.673 E9.25137
G1 X84.942 Y86.826 E9.38708
G1 X87.694 Y86.903 E9.52444
G1 X90.412 Y86.903 E9.66004
G1 X93.164 Y86.824 E9.79739
G1 X95.914 Y86.667 E9.93481
G1 X98.608 Y86.438 E10.0697
G1 X99.592 Y86.334 E10.11907
G1 X100.24 Y86.301 E10.15144
G1 X113.339 Y86.3 E10.80495
G1 X114.04 Y86.31 E10.83993
G1 X114.543 Y86.357 E10.86513
G1 X115.033 Y86.483 E10.89037
G1 X115.496 Y86.685 E10.91557
G1 X115.923 Y86.957 E10.94083
G1 X116.301 Y87.292 E10.96603
G1 X116.621 Y87.683 E10.99124
G1 X116.871 Y88.109 E11.01588
G1 X117.425 Y89.247 E11.07903
G1 X117.501 Y89.386 E11.08693
G1 X117.835 Y90.082 E11.12544
G1 X118.841 Y92.055 E11.23593
G1 X119.035 Y92.522 E11.26116
G1 X119.152 Y93.014 E11.28639
G1 X119.198 Y93.731 E11.32224
G1 X119.2 Y93.83 E11.32718
G1 X119.2 Y102.839 E11.77664
G1 X119.19 Y103.541 E11.81167
G1 X119.143 Y104.044 E11.83687
G1 X119.017 Y104.534 E11.86211
G1 X118.815 Y104.997 E11.88731
G1 X118.544 Y105.424 E11.91254
G1 X118.208 Y105.802 E11.93778
G1 X117.53 Y106.329 E11.98062
G1 X115.337 Y107.955 E12.11682
G1 X114.76 Y108.407 E12.15339
G1 X113.936 Y109.035 E12.20508
G1 X113.511 Y109.309 E12.2303
G1 X113.048 Y109.512 E12.25553
G1 X112.559 Y109.64 E12.28074
G1 X111.768 Y109.698 E12.32031
G1 X111.67 Y109.7 E12.3252
G1 X100.661 Y109.7 E12.87445
G1 X99.964 Y109.69 E12.90922
G1 X99.697 Y109.675 E12.92256
G1 X98.542 Y109.562 E12.98046
G1 X95.774 Y109.327 E13.11906
G1 X93.058 Y109.174 E13.25477
G1 X90.306 Y109.097 E13.39212
G1 X87.588 Y109.097 E13.52772
G1 X84.836 Y109.176 E13.66508
G1 X82.086 Y109.333 E13.8025
G1 X79.392 Y109.562 E13.93739
G1 X78.408 Y109.666 E13.98675
G1 X77.76 Y109.699 E14.01913
G1 X62.661 Y109.7 E14.77242
G1 X61.959 Y109.69 E14.80744
G1 X61.456 Y109.643 E14.83265
G1 X60.966 Y109.517 E14.85789
G1 X60.572 Y109.351 E14.87922
G1 X60.04 Y109.085 E14.90889
G1 X59.596 Y108.868 E14.93355
G1 X58.569 Y108.351 E14.99091
G1 X58.137 Y108.089 E15.01612
G1 X57.751 Y107.762 E15.04136
G1 X57.422 Y107.378 E15.06659
G1 X57.158 Y106.947 E15.0918
G1 X56.964 Y106.48 E15.11703
G1 X56.847 Y105.989 E15.14221
G1 X56.801 Y105.249 E15.1792
G1 X56.8 Y92.127 E15.83386
G1 X56.81 Y91.456 E15.86734
G1 X56.858 Y90.953 E15.89255
G1 X56.984 Y90.463 E15.91779
G1 X57.186 Y90 E15.94299
G1 X57.458 Y89.574 E15.96821
G1 X57.725 Y89.264 E15.98862
G1 X58.207 Y88.773 E16.02295
G1 X59.304 Y87.69 E16.09986
G1 X59.714 Y87.273 E16.12903
G1 X60.096 Y86.942 E16.15425
M204 S1000
G1 F1500 E9.65425
;MESH:LeChuck_0.95.stl
G0 F3600 X62.614 Y88.835
G0 X62.614 Y90.114
G0 X77.33 Y94.17
G0 X77.4 Y94.1
M204 S3000
;TYPE:WALL-INNER
G1 F1500 E16.15425
G1 F1800 X81.4 Y94.1 E16.35381
G1 X81.4 Y102.9 E16.79284
G1 X79.4 Y102.9 E16.89262
G1 X79.4 Y103.9 E16.94251
G1 X77.4 Y103.9 E17.04229
G1 X77.4 Y105.9 E17.14207
G1 X62.6 Y105.9 E17.88045
G1 X62.6 Y104.9 E17.93034
G1 X60.6 Y104.9 E18.03012
G1 X60.6 Y92.1 E18.66872
G1 X62.6 Y92.1 E18.7685
G1 X62.6 Y90.1 E18.86828
G1 X77.4 Y90.1 E19.60665
G1 X77.4 Y94.1 E19.80621
M204 S1000
G0 F3600 X77.8 Y93.7
M204 S3000
;TYPE:WALL-OUTER
G1 F1800 X81.8 Y93.7 E20.00577
G1 X81.8 Y103.3 E20.48472
G1 X79.8 Y103.3 E20.5845
G1 X79.8 Y104.3 E20.63439
G1 X77.8 Y104.3 E20.73417
G1 X77.8 Y106.3 E20.83395
G1 X62.2 Y106.3 E21.61224
G1 X62.2 Y105.3 E21.66213
G1 X60.2 Y105.3 E21.76191
G1 X60.2 Y91.7 E22.44041
G1 X62.2 Y91.7 E22.54019
G1 X62.2 Y89.7 E22.63998
G1 X77.8 Y89.7 E23.41826
G1 X77.8 Y93.7 E23.61782
M204 S1000
G0 F3600 X78 Y93.7
G0 X78 Y94.2
G0 X77.01 Y94.49
M204 S3000
;TYPE:SKIN
G1 F1800 X81.01 Y94.49 E23.81738
G1 X81.01 Y102.51 E24.2175
G1 X79.01 Y102.51 E24.31728
G1 X79.01 Y103.51 E24.36717
G1 X77.01 Y103.51 E24.46695
G1 X77.01 Y105.51 E24.56673
G1 X62.99 Y105.51 E25.2662
G1 X62.99 Y104.51 E25.31609
G1 X60.99 Y104.51 E25.41587
G1 X60.99 Y92.49 E26.01555
G1 X62.99 Y92.49 E26.11533
G1 X62.99 Y90.49 E26.21511
G1 X77.01 Y90.49 E26.91457
G1 X77.01 Y94.49 E27.11413
M204 S1000
G0 F3600 X76.829 Y90.972
M204 S3000
G1 F1800 X76.527 Y90.669 E27.13547
M204 S1000
G0 F3600 X75.961 Y90.669
M204 S3000
G1 F1800 X76.829 Y91.537 E27.19671
M204 S1000
G0 F3600 X76.829 Y92.103
M204 S3000
G1 F1800 X75.395 Y90.669 E27.29789
M204 S1000
G0 F3600 X74.83 Y90.669
M204 S3000
G1 F1800 X76.829 Y92.669 E27.43897
M204 S1000
G0 F3600 X76.829 Y93.234
M204 S3000
G1 F1800 X74.264 Y90.669 E27.61994
M204 S1000
G0 F3600 X73.698 Y90.669
M204 S3000
G1 F1800 X76.829 Y93.8 E27.84085
M204 S1000
G0 F3600 X76.829 Y94.366
M204 S3000
G1 F1800 X73.133 Y90.669 E28.10166
M204 S1000
G0 F3600 X72.567 Y90.669
M204 S3000
G1 F1800 X80.83 Y98.932 E28.68466
M204 S1000
G0 F3600 X80.83 Y99.497
M204 S3000
G1 F1800 X72.001 Y90.669 E29.30755
M204 S1000
G0 F3600 X71.436 Y90.669
M204 S3000
G1 F1800 X80.83 Y100.063 E29.97035
M204 S1000
G0 F3600 X80.83 Y100.629
M204 S3000
G1 F1800 X70.87 Y90.669 E30.67308
M204 S1000
G0 F3600 X70.304 Y90.669
M204 S3000
G1 F1800 X80.83 Y101.194 E31.41572
M204 S1000
G0 F3600 X80.83 Y101.76
M204 S3000
G1 F1800 X69.739 Y90.669 E32.19825
M204 S1000
G0 F3600 X69.173 Y90.669
M204 S3000
G1 F1800 X80.83 Y102.326 E33.02071
M204 S1000
G0 F3600 X80.267 Y102.328
M204 S3000
G1 F1800 X68.607 Y90.669 E33.84335
M204 S1000
G0 F3600 X68.042 Y90.669
M204 S3000
G1 F1800 X79.701 Y102.328 E34.66596
M204 S1000
G0 F3600 X79.135 Y102.328
M204 S3000
G1 F1800 X67.476 Y90.669 E35.48856
M204 S1000
G0 F3600 X66.91 Y90.669
M204 S3000
G1 F1800 X78.829 Y102.588 E36.32951
M204 S1000
G0 F3600 X78.829 Y103.154
M204 S3000
G1 F1800 X66.345 Y90.669 E37.21036
M204 S1000
G0 F3600 X65.779 Y90.669
M204 S3000
G1 F1800 X78.439 Y103.329 E38.10359
M204 S1000
G0 F3600 X77.873 Y103.329
M204 S3000
G1 F1800 X65.213 Y90.669 E38.99682
M204 S1000
G0 F3600 X64.647 Y90.669
M204 S3000
G1 F1800 X77.307 Y103.329 E39.89005
M204 S1000
G0 F3600 X76.829 Y103.417
M204 S3000
G1 F1800 X64.082 Y90.669 E40.78946
M204 S1000
G0 F3600 X63.516 Y90.669
M204 S3000
G1 F1800 X76.829 Y103.982 E41.72876
M204 S1000
G0 F3600 X76.829 Y104.548
M204 S3000
G1 F1800 X63.17 Y90.888 E42.69251
M204 S1000
G0 F3600 X63.17 Y91.454
M204 S3000
G1 F1800 X76.829 Y105.114 E43.65627
M204 S1000
G0 F3600 X76.479 Y105.329
M204 S3000
G1 F1800 X63.17 Y92.02 E44.59529
M204 S1000
G0 F3600 X63.17 Y92.585
M204 S3000
G1 F1800 X75.913 Y105.329 E45.49441
M204 S1000
G0 F3600 X75.347 Y105.329
M204 S3000
G1 F1800 X62.687 Y92.669 E46.38764
M204 S1000
G0 F3600 X62.122 Y92.669
M204 S3000
G1 F1800 X74.782 Y105.329 E47.28087
M204 S1000
G0 F3600 X74.216 Y105.329
M204 S3000
G1 F1800 X61.556 Y92.669 E48.1741
M204 S1000
G0 F3600 X61.17 Y92.848
M204 S3000
G1 F1800 X73.65 Y105.329 E49.05467
M204 S1000
G0 F3600 X73.085 Y105.329
M204 S3000
G1 F1800 X61.17 Y93.414 E49.89534
M204 S1000
G0 F3600 X61.17 Y93.98
M204 S3000
G1 F1800 X72.519 Y105.329 E50.69607
M204 S1000
G0 F3600 X71.953 Y105.329
M204 S3000
G1 F1800 X61.17 Y94.545 E51.45691
M204 S1000
G0 F3600 X61.17 Y95.111
M204 S3000
G1 F1800 X71.388 Y105.329 E52.17784
M204 S1000
G0 F3600 X70.822 Y105.329
M204 S3000
G1 F1800 X61.17 Y95.677 E52.85884
M204 S1000
G0 F3600 X61.17 Y96.242
M204 S3000
G1 F1800 X70.256 Y105.329 E53.49994
M204 S1000
G0 F3600 X69.691 Y105.329
M204 S3000
G1 F1800 X61.17 Y96.808 E54.10115
M204 S1000
G0 F3600 X61.17 Y97.374
M204 S3000
G1 F1800 X69.125 Y105.329 E54.66241
M204 S1000
G0 F3600 X68.559 Y105.329
M204 S3000
G1 F1800 X61.17 Y97.939 E55.18378
M204 S1000
G0 F3600 X61.17 Y98.505
M204 S3000
G1 F1800 X67.993 Y105.329 E55.66522
M204 S1000
G0 F3600 X67.428 Y105.329
M204 S3000
G1 F1800 X61.17 Y99.071 E56.10675
M204 S1000
G0 F3600 X61.17 Y99.637
M204 S3000
G1 F1800 X66.862 Y105.329 E56.50836
M204 S1000
G0 F3600 X66.296 Y105.329
M204 S3000
G1 F1800 X61.17 Y100.202 E56.87006
M204 S1000
G0 F3600 X61.17 Y100.768
M204 S3000
G1 F1800 X65.731 Y105.329 E57.19186
M204 S1000
G0 F3600 X65.165 Y105.329
M204 S3000
G1 F1800 X61.17 Y101.334 E57.47373
M204 S1000
G0 F3600 X61.17 Y101.899
M204 S3000
G1 F1800 X64.599 Y105.329 E57.7157
M204 S1000
G0 F3600 X64.034 Y105.329
M204 S3000
G1 F1800 X63.17 Y104.465 E57.77666
M204 S1000
G0 F3600 X63.034 Y104.329
M204 S3000
G1 F1800 X61.17 Y102.465 E57.90817
M204 S1000
G0 F3600 X61.17 Y103.031
M204 S3000
G1 F1800 X62.468 Y104.329 E57.99976
M204 S1000
G0 F3600 X61.902 Y104.329
M204 S3000
G1 F1800 X61.17 Y103.596 E58.05144
M204 S1000
G0 F3600 X61.17 Y104.162
M204 S3000
G1 F1800 X61.337 Y104.329 E58.06322
M204 S1000
G0 F3600 X63.17 Y105.03
M204 S3000
G1 F1800 X63.468 Y105.329 E58.08428
M204 S1000
G0 F3600 X77.133 Y94.669
M204 S3000
G1 F1800 X80.83 Y98.366 E58.34512
M204 S1000
G0 F3600 X80.83 Y97.8
M204 S3000
G1 F1800 X77.699 Y94.669 E58.56603
M204 S1000
G0 F3600 X78.264 Y94.669
M204 S3000
G1 F1800 X80.83 Y97.234 E58.74704
M204 S1000
G0 F3600 X80.83 Y96.669
M204 S3000
G1 F1800 X78.83 Y94.669 E58.88815
M204 S1000
G0 F3600 X79.396 Y94.669
M204 S3000
G1 F1800 X80.83 Y96.103 E58.98933
M204 S1000
G0 F3600 X80.83 Y95.537
M204 S3000
G1 F1800 X79.961 Y94.669 E59.05061
M204 S1000
G0 F3600 X80.527 Y94.669
M204 S3000
G1 F1800 X80.83 Y94.972 E59.07199
M204 S1000
G1 F1500 E52.57199
G0 F3600 X81.38 Y94.17
G0 X82.665 Y94.17
G0 X95.335 Y94.17
G0 X96.62 Y94.17
G0 X113.33 Y94.17
G0 X113.4 Y94.1
M204 S3000
;TYPE:WALL-INNER
G1 F1500 E59.07199
G1 F1800 X115.4 Y94.1 E59.17177
G1 X115.4 Y102.9 E59.6108
G1 X113.4 Y102.9 E59.71058
G1 X113.4 Y103.9 E59.76047
G1 X111.4 Y103.9 E59.86025
G1 X111.4 Y105.9 E59.96003
G1 X100.6 Y105.9 E60.49885
G1 X100.6 Y104.9 E60.54874
G1 X98.6 Y104.9 E60.64852
G1 X98.6 Y102.9 E60.7483
G1 X96.6 Y102.9 E60.84808
G1 X96.6 Y94.1 E61.28711
G1 X100.6 Y94.1 E61.48667
G1 X100.6 Y90.1 E61.68623
G1 X113.4 Y90.1 E62.32483
G1 X113.4 Y94.1 E62.52439
M204 S1000
G0 F3600 X113.8 Y93.7
M204 S3000
;TYPE:WALL-OUTER
G1 F1800 X115.8 Y93.7 E62.62417
G1 X115.8 Y103.3 E63.10311
G1 X113.8 Y103.3 E63.20289
G1 X113.8 Y104.3 E63.25278
G1 X111.8 Y104.3 E63.35257
G1 X111.8 Y106.3 E63.45235
G1 X100.2 Y106.3 E64.03107
G1 X100.2 Y105.3 E64.08096
G1 X98.2 Y105.3 E64.18074
G1 X98.2 Y103.3 E64.28052
G1 X96.2 Y103.3 E64.3803
G1 X96.2 Y93.7 E64.85925
G1 X100.2 Y93.7 E65.05881
G1 X100.2 Y89.7 E65.25837
G1 X113.8 Y89.7 E65.93688
G1 X113.8 Y93.7 E66.13644
M204 S1000
G0 F3600 X114 Y93.7
G0 X114 Y94.2
G0 X113.01 Y94.49
M204 S3000
;TYPE:SKIN
G1 F1800 X115.01 Y94.49 E66.23622
G1 X115.01 Y102.51 E66.63634
G1 X113.01 Y102.51 E66.73612
G1 X113.01 Y103.51 E66.78601
G1 X111.01 Y103.51 E66.88579
G1 X111.01 Y105.51 E66.98557
G1 X100.99 Y105.51 E67.48547
G1 X100.99 Y104.51 E67.53536
G1 X98.99 Y104.51 E67.63514
G1 X98.99 Y102.51 E67.73492
G1 X96.99 Y102.51 E67.8347
G1 X96.99 Y94.49 E68.23482
G1 X100.99 Y94.49 E68.43438
G1 X100.99 Y90.49 E68.63394
G1 X113.01 Y90.49 E69.23362
G1 X113.01 Y94.49 E69.43318
M204 S1000
G0 F3600 X112.829 Y90.767
M204 S3000
G1 F1800 X112.731 Y90.67 E69.44006
M204 S1000
G0 F3600 X112.166 Y90.67
M204 S3000
G1 F1800 X112.829 Y91.333 E69.48684
M204 S1000
G0 F3600 X112.829 Y91.899
M204 S3000
G1 F1800 X111.6 Y90.67 E69.57355
M204 S1000
G0 F3600 X111.034 Y90.67
M204 S3000
G1 F1800 X112.829 Y92.464 E69.70017
M204 S1000
G0 F3600 X112.829 Y93.03
M204 S3000
G1 F1800 X110.469 Y90.67 E69.86668
M204 S1000
G0 F3600 X109.903 Y90.67
M204 S3000
G1 F1800 X112.829 Y93.596 E70.07312
M204 S1000
G0 F3600 X112.829 Y94.161
M204 S3000
G1 F1800 X109.337 Y90.67 E70.31947
M204 S1000
G0 F3600 X108.772 Y90.67
M204 S3000
G1 F1800 X114.829 Y96.727 E70.74682
M204 S1000
G0 F3600 X114.829 Y97.292
M204 S3000
G1 F1800 X108.206 Y90.67 E71.21407
M204 S1000
G0 F3600 X107.64 Y90.67
M204 S3000
G1 F1800 X114.829 Y97.858 E71.72126
M204 S1000
G0 F3600 X114.829 Y98.424
M204 S3000
G1 F1800 X107.075 Y90.67 E72.26835
M204 S1000
G0 F3600 X106.509 Y90.67
M204 S3000
G1 F1800 X114.829 Y98.989 E72.85533
M204 S1000
G0 F3600 X114.829 Y99.555
M204 S3000
G1 F1800 X105.943 Y90.67 E73.48225
M204 S1000
G0 F3600 X105.378 Y90.67
M204 S3000
G1 F1800 X114.829 Y100.121 E74.14907
M204 S1000
G0 F3600 X114.829 Y100.687
M204 S3000
G1 F1800 X104.812 Y90.67 E74.85582
M204 S1000
G0 F3600 X104.246 Y90.67
M204 S3000
G1 F1800 X114.829 Y101.252 E75.60248
M204 S1000
G0 F3600 X114.829 Y101.818
M204 S3000
G1 F1800 X103.68 Y90.67 E76.38906
M204 S1000
G0 F3600 X103.115 Y90.67
M204 S3000
G1 F1800 X114.775 Y102.33 E77.21174
M204 S1000
G0 F3600 X114.209 Y102.33
M204 S3000
G1 F1800 X102.549 Y90.67 E78.03442
M204 S1000
G0 F3600 X101.983 Y90.67
M204 S3000
G1 F1800 X113.644 Y102.33 E78.85713
M204 S1000
G0 F3600 X113.078 Y102.33
M204 S3000
G1 F1800 X101.418 Y90.67 E79.6798
M204 S1000
G0 F3600 X101.169 Y90.986
M204 S3000
G1 F1800 X112.829 Y102.647 E80.50251
M204 S1000
G0 F3600 X112.829 Y103.212
M204 S3000
G1 F1800 X101.169 Y91.552 E81.32519
M204 S1000
G0 F3600 X101.169 Y92.118
M204 S3000
G1 F1800 X112.38 Y103.329 E82.11619
M204 S1000
G0 F3600 X111.814 Y103.329
M204 S3000
G1 F1800 X101.169 Y92.684 E82.86725
M204 S1000
G0 F3600 X101.169 Y93.249
M204 S3000
G1 F1800 X111.249 Y103.329 E83.57845
