;FLAVOR:Marlin
;TIME:6703
;Filament used: 7.22332m
;Layer height: 0.2
;MINX:25.581
;MINY:73.66
;MINZ:0.3
;MAXX:174.419
;MAXY:126.34
;MAXZ:15.7
;Generated with Cura_SteamEngine 4.13.1
M140 S50
M105
M190 S50
M104 S190
M105
M109 S190
M82 ;absolute extrusion mode
G28 ;Home
G1 Z15.0 F6000 ;Move the platform down 15mm
;Prime the extruder
G92 E0
G1 F200 E3
G92 E0
G92 E0
G92 E0
G1 F1500 E-6.5
;LAYER_COUNT:78
;LAYER:0
M107
M204 S900
G0 F3600 X27.869 Y73.804 Z0.3
;TYPE:SKIRT
G1 F1500 E0
G1 F3000 X28.363 Y73.698 E0.02773
G1 X29.021 Y73.661 E0.06389
G1 X170.558 Y73.66 E7.83134
G1 X171.256 Y73.67 E7.86965
G1 X171.759 Y73.717 E7.89737
G1 X172.249 Y73.843 E7.92514
G1 X172.713 Y74.045 E7.95291
G1 X173.139 Y74.317 E7.98065
G1 X173.517 Y74.652 E8.00836
G1 X173.837 Y75.043 E8.03609
G1 X174.092 Y75.48 E8.06386
G1 X174.275 Y75.951 E8.09159
G1 X174.382 Y76.445 E8.11933
G1 X174.418 Y77.1 E8.15533
G1 X174.419 Y78.164 E8.21372
G1 X174.409 Y78.9 E8.25411
G1 X174.362 Y79.404 E8.28189
G1 X174.236 Y79.894 E8.30966
G1 X174.035 Y80.357 E8.33736
G1 X173.669 Y80.903 E8.37343
G1 X173.446 Y81.171 E8.39257
G1 X171.707 Y83.324 E8.54445
G1 X170.039 Y85.514 E8.69552
G1 X168.439 Y87.743 E8.8461
G1 X166.907 Y90.011 E8.9963
G1 X165.435 Y92.328 E9.14695
G1 X164.053 Y94.645 E9.29501
G1 X162.701 Y97.065 E9.44713
G1 X161.432 Y99.497 E9.59768
G1 X160.239 Y101.947 E9.74722
G1 X159.109 Y104.447 E9.89779
G1 X158.054 Y106.969 E10.04781
G1 X157.055 Y109.556 E10.2
G1 X156.162 Y112.091 E10.3475
G1 X155.322 Y114.701 E10.49797
G1 X154.551 Y117.348 E10.64927
G1 X153.86 Y120.001 E10.79973
G1 X153.221 Y122.775 E10.95595
G1 X153.164 Y123.036 E10.97061
G1 X153.018 Y123.52 E10.99835
G1 X152.797 Y123.975 E11.02611
G1 X152.508 Y124.389 E11.05382
G1 X152.156 Y124.753 E11.08161
G1 X151.752 Y125.056 E11.10932
G1 X151.305 Y125.292 E11.13706
G1 X150.826 Y125.455 E11.16483
G1 X150.128 Y125.553 E11.20351
G1 X149.718 Y125.563 E11.22602
G1 X143.038 Y125.563 E11.59261
G1 X142.339 Y125.553 E11.63098
G1 X141.802 Y125.499 E11.6606
G1 X140.847 Y125.322 E11.7139
G1 X139.935 Y125.139 E11.76495
G1 X137.213 Y124.671 E11.91652
G1 X134.498 Y124.284 E12.06702
G1 X131.797 Y123.977 E12.21621
G1 X129.083 Y123.744 E12.3657
G1 X126.336 Y123.588 E12.51669
G1 X123.584 Y123.509 E12.66778
G1 X120.866 Y123.509 E12.81694
G1 X118.114 Y123.586 E12.96803
G1 X115.399 Y123.739 E13.11726
G1 X112.655 Y123.971 E13.26839
G1 X109.92 Y124.281 E13.41944
G1 X107.231 Y124.663 E13.5685
G1 X104.541 Y125.124 E13.71827
G1 X101.817 Y125.669 E13.87073
G1 X100.368 Y125.992 E13.9522
G1 X99.253 Y126.249 E14.01499
G1 X98.624 Y126.33 E14.0498
G1 X98.214 Y126.34 E14.07231
G1 X50.908 Y126.34 E16.66842
G1 X50.205 Y126.33 E16.70701
G1 X49.702 Y126.283 E16.73473
G1 X49.212 Y126.157 E16.7625
G1 X48.749 Y125.955 E16.79022
G1 X48.322 Y125.684 E16.81797
G1 X48.006 Y125.411 E16.84089
G1 X47.466 Y124.878 E16.88253
G1 X46.47 Y123.869 E16.96034
G1 X45.543 Y122.956 E17.03174
G1 X44.538 Y121.937 E17.11028
G1 X43.611 Y121.024 E17.18169
G1 X42.573 Y119.972 E17.26279
G1 X41.989 Y119.372 E17.30874
G1 X41.98 Y119.361 E17.30952
G1 X41.58 Y118.736 E17.35025
G1 X40.989 Y117.522 E17.42434
G1 X39.671 Y114.913 E17.58476
G1 X39.48 Y114.445 E17.6125
G1 X39.392 Y114.107 E17.63166
G1 X39.227 Y113.294 E17.67719
G1 X38.636 Y110.559 E17.83075
G1 X37.991 Y107.94 E17.97877
G1 X37.258 Y105.291 E18.12961
G1 X36.45 Y102.664 E18.28044
G1 X35.565 Y100.049 E18.43195
G1 X34.624 Y97.505 E18.58081
G1 X33.596 Y94.955 E18.73169
G1 X32.511 Y92.467 E18.88065
G1 X31.331 Y89.959 E19.03276
G1 X30.11 Y87.541 E19.18142
G1 X28.795 Y85.113 E19.33295
G1 X27.435 Y82.761 E19.48205
G1 X26.138 Y80.656 E19.61774
G1 X26 Y80.415 E19.63298
G1 X25.788 Y79.956 E19.66073
G1 X25.651 Y79.469 E19.68849
G1 X25.591 Y78.939 E19.71776
G1 X25.581 Y78.53 E19.74022
G1 X25.581 Y77.491 E19.79724
G1 X25.59 Y76.826 E19.83373
G1 X25.637 Y76.322 E19.86151
G1 X25.763 Y75.833 E19.88923
G1 X25.964 Y75.369 E19.91698
G1 X26.235 Y74.942 E19.94473
G1 X26.57 Y74.564 E19.97245
G1 X26.961 Y74.243 E20.00021
G1 X27.398 Y73.988 E20.02798
G1 X27.869 Y73.804 E20.05573
G1 F1500 E13.55573
;MESH:Pi_4.stl
G0 F3600 X29.195 Y76.195
G0 X29.195 Y77.274
G0 X47.715 Y78.106
;TYPE:WALL-INNER
G1 F1500 E20.05573
G1 F3000 X47.715 Y78.26 E20.06418
G1 X29.381 Y78.26 E21.07034
G1 X29.381 Y77.46 E21.11424
G1 X99.498 Y77.46 E24.96221
G1 X99.764 Y78.26 E25.00847
G1 X91.416 Y78.26 E25.4666
G1 X91.416 Y78.106 E25.47506
G1 X76.693 Y78.106 E26.28304
G1 X76.693 Y78.26 E26.29149
G1 X56.642 Y78.26 E27.39188
G1 X56.642 Y78.106 E27.40033
G1 X47.715 Y78.106 E27.89023
G1 F1500 E21.39023
G0 F3600 X56.456 Y78.292
G0 X56.695 Y79.513
G0 X72.764 Y86.848
G0 X73.843 Y86.848
G0 X80.729 Y117.772
G0 X96.012 Y121.808
G1 F1500 E27.89023
G1 F3000 X97.944 Y121.808 E27.99626
G1 X97.944 Y122.54 E28.03643
G1 X50.847 Y122.54 E30.62108
G1 X50.847 Y120.608 E30.72711
G1 X48.915 Y120.608 E30.83313
G1 X48.915 Y118.676 E30.93916
G1 X46.983 Y118.676 E31.04519
G1 X46.983 Y116.744 E31.15121
G1 X45.051 Y116.744 E31.25724
G1 X45.051 Y112.88 E31.46929
G1 X43.119 Y112.88 E31.57532
G1 X43.119 Y110.216 E31.72152
G1 X43.851 Y110.216 E31.76169
G1 X43.851 Y112.148 E31.86772
G1 X45.783 Y112.148 E31.97374
G1 X45.783 Y114.08 E32.07977
G1 X47.715 Y114.08 E32.1858
G1 X47.715 Y116.012 E32.29182
G1 X49.647 Y116.012 E32.39785
G1 X49.647 Y117.944 E32.50388
G1 X58.574 Y117.944 E32.99378
G1 X58.574 Y107.085 E33.58972
G1 X56.642 Y107.085 E33.69574
G1 X56.642 Y97.425 E34.22588
G1 X54.711 Y97.425 E34.33185
G1 X54.711 Y91.63 E34.64987
G1 X52.779 Y91.63 E34.7559
G1 X52.779 Y89.698 E34.86193
G1 X50.847 Y89.698 E34.96795
G1 X50.847 Y85.834 E35.18001
G1 X48.915 Y85.834 E35.28603
G1 X48.915 Y83.902 E35.39206
G1 X46.983 Y83.902 E35.49809
G1 X46.983 Y81.238 E35.64428
G1 X48.915 Y81.238 E35.75031
G1 X48.915 Y79.46 E35.84789
G1 X55.442 Y79.46 E36.20608
G1 X55.442 Y83.17 E36.40969
G1 X57.374 Y83.17 E36.51571
G1 X57.374 Y90.898 E36.93982
G1 X59.306 Y90.898 E37.04585
G1 X59.306 Y102.489 E37.68195
G1 X61.238 Y102.489 E37.78798
G1 X61.238 Y117.944 E38.63614
G1 X75.961 Y117.944 E39.44412
G1 X75.961 Y112.88 E39.72203
G1 X74.029 Y112.88 E39.82806
G1 X74.029 Y87.034 E41.24647
G1 X75.961 Y87.034 E41.35249
G1 X75.961 Y81.238 E41.67057
G1 X77.893 Y81.238 E41.7766
G1 X77.893 Y79.46 E41.87417
G1 X90.216 Y79.46 E42.55045
G1 X90.216 Y81.238 E42.64803
G1 X94.08 Y81.238 E42.86008
G1 X94.08 Y83.17 E42.96611
G1 X96.012 Y83.17 E43.07213
G1 X96.012 Y83.902 E43.1123
G1 X93.348 Y83.902 E43.2585
G1 X93.348 Y81.97 E43.36453
G1 X89.484 Y81.97 E43.57658
G1 X89.484 Y80.038 E43.68261
G1 X86.352 Y80.038 E43.85449
G1 X86.352 Y81.97 E43.96052
G1 X82.489 Y81.97 E44.17252
G1 X82.489 Y85.834 E44.38457
G1 X80.557 Y85.834 E44.4906
G1 X80.557 Y117.944 E46.25277
G1 X94.08 Y117.944 E46.9949
G1 X94.08 Y119.876 E47.10093
G1 X96.012 Y119.876 E47.20695
G1 X96.012 Y121.808 E47.31298
G1 F1500 E40.81298
G0 F3600 X96.198 Y119.69
G0 X96.198 Y118.611
G0 X105.169 Y92.353
G0 X105.169 Y91.272
G0 X117.998 Y91.088
G1 F1500 E47.31298
G1 F3000 X105.302 Y91.088 E48.00973
G1 X101.428 Y79.46 E48.68235
G1 X114.124 Y79.46 E49.37909
G1 X117.998 Y91.088 E50.05171
G1 F1500 E43.55171
G0 F3600 X116.869 Y87.068
G0 X117.878 Y86.731
G0 X116.869 Y79.525
G0 X116.869 Y78.44
G0 X143.311 Y78.26
G1 F1500 E50.05171
G1 F3000 X114.989 Y78.26 E51.606
G1 X114.722 Y77.46 E51.65228
G1 X143.311 Y77.46 E53.22123
G1 X143.311 Y78.26 E53.26513
G1 F1500 E46.76513
G0 F3600 X143.483 Y77.642
G0 X149.448 Y77.65
G0 X149.448 Y79.28
G0 X149.448 Y92.613
G1 F1500 E53.26513
G1 F3000 X149.448 Y121.763 E54.86486
G1 X142.977 Y121.763 E55.21998
G1 X142.977 Y120.229 E55.30417
G1 X141.443 Y120.229 E55.38835
G1 X141.443 Y118.695 E55.47254
G1 X139.909 Y118.695 E55.55672
G1 X139.909 Y115.626 E55.72515
G1 X138.374 Y115.626 E55.80939
G1 X138.374 Y114.092 E55.89357
G1 X136.84 Y114.092 E55.97776
G1 X136.84 Y111.024 E56.14612
G1 X135.306 Y111.024 E56.23031
G1 X135.306 Y109.489 E56.31455
G1 X133.772 Y109.489 E56.39873
G1 X133.772 Y106.421 E56.5671
G1 X132.237 Y106.421 E56.65134
G1 X132.237 Y103.353 E56.81971
G1 X130.703 Y103.353 E56.9039
G1 X130.703 Y101.818 E56.98814
G1 X129.169 Y101.818 E57.07232
G1 X129.169 Y98.75 E57.24069
G1 X127.635 Y98.75 E57.32488
G1 X127.635 Y97.216 E57.40906
G1 X126.1 Y97.216 E57.4933
G1 X126.1 Y94.147 E57.66172
G1 X124.566 Y94.147 E57.74591
G1 X124.566 Y89.21 E58.01685
G1 X144.511 Y89.21 E59.11141
G1 X144.511 Y79.46 E59.64649
G1 X149.448 Y79.46 E59.91743
G1 X149.448 Y89.21 E60.4525
G1 X155.585 Y89.21 E60.78929
G1 X155.585 Y92.613 E60.97605
G1 X149.448 Y92.613 E61.31284
G0 F3600 X144.339 Y116.654
G0 X141.949 Y116.654
G0 X140.243 Y113.758
G1 F3000 X141.777 Y113.758 E61.39702
G1 X141.777 Y116.826 E61.56539
G1 X144.511 Y116.826 E61.71543
G1 X144.511 Y92.613 E63.04422
G1 X127.969 Y92.613 E63.95204
G1 X127.969 Y95.347 E64.10208
G1 X129.503 Y95.347 E64.18626
G1 X129.503 Y96.881 E64.27045
G1 X131.037 Y96.881 E64.35463
G1 X131.037 Y99.95 E64.52305
G1 X132.572 Y99.95 E64.60729
G1 X132.572 Y101.484 E64.69148
G1 X134.106 Y101.484 E64.77566
G1 X134.106 Y104.553 E64.94409
G1 X135.64 Y104.553 E65.02827
G1 X135.64 Y107.621 E65.19664
G1 X137.174 Y107.621 E65.28083
G1 X137.174 Y109.155 E65.36501
G1 X138.709 Y109.155 E65.44925
G1 X138.709 Y112.224 E65.61768
G1 X140.243 Y112.224 E65.70186
G1 X140.243 Y113.758 E65.78604
G1 F1500 E59.28604
G0 F3600 X141.949 Y116.654
G0 X144.339 Y116.654
G0 X149.634 Y92.799
G0 X150.701 Y93.866
G0 X156.838 Y93.866
G0 X156.838 Y87.957
G0 X150.701 Y79.513
G0 X150.462 Y78.446
G0 X170.619 Y78.26
G1 F1500 E65.78604
G1 F3000 X150.648 Y78.26 E66.88204
G1 X150.648 Y77.46 E66.92594
G1 X170.619 Y77.46 E68.02193
G1 X170.619 Y78.26 E68.06584
G1 F1500 E61.56584
G0 F3600 X150.462 Y78.446
G0 X149.634 Y79.274
G0 X149.548 Y93.013
G1 F1500 E68.06584
G0 F3600 X149.848 Y93.013
;TYPE:WALL-OUTER
G1 F3000 X149.848 Y122.163 E69.66557
G1 X142.577 Y122.163 E70.06459
G1 X142.577 Y120.629 E70.14878
G1 X141.043 Y120.629 E70.23296
G1 X141.043 Y119.095 E70.31715
G1 X139.509 Y119.095 E70.40133
G1 X139.509 Y116.026 E70.56976
G1 X137.974 Y116.026 E70.654
G1 X137.974 Y114.492 E70.73818
G1 X136.44 Y114.492 E70.82237
G1 X136.44 Y111.424 E70.99074
G1 X134.906 Y111.424 E71.07492
G1 X134.906 Y109.889 E71.15916
G1 X133.372 Y109.889 E71.24334
G1 X133.372 Y106.821 E71.41171
G1 X131.837 Y106.821 E71.49595
G1 X131.837 Y103.753 E71.66432
G1 X130.303 Y103.753 E71.74851
G1 X130.303 Y102.218 E71.83275
G1 X128.769 Y102.218 E71.91693
G1 X128.769 Y99.15 E72.0853
G1 X127.235 Y99.15 E72.16949
G1 X127.235 Y97.616 E72.25367
G1 X125.7 Y97.616 E72.33791
G1 X125.7 Y94.547 E72.50633
G1 X124.166 Y94.547 E72.59052
G1 X124.166 Y88.81 E72.90536
G1 X144.111 Y88.81 E73.99993
G1 X144.111 Y79.06 E74.535
G1 X149.848 Y79.06 E74.84984
G1 X149.848 Y88.81 E75.38491
G1 X155.985 Y88.81 E75.72171
G1 X155.985 Y93.013 E75.95237
G1 X149.848 Y93.013 E76.28916
G0 F3600 X149.848 Y93.213
G0 X149.548 Y93.213
G0 X144.339 Y116.654
G0 X141.949 Y116.654
G0 X140.343 Y113.358
G0 X140.643 Y113.358
G1 F3000 X142.177 Y113.358 E76.37334
G1 X142.177 Y116.426 E76.54171
G1 X144.111 Y116.426 E76.64785
G1 X144.111 Y93.013 E77.93274
G1 X128.369 Y93.013 E78.79665
G1 X128.369 Y94.947 E78.90278
G1 X129.903 Y94.947 E78.98697
G1 X129.903 Y96.481 E79.07115
G1 X131.437 Y96.481 E79.15534
G1 X131.437 Y99.55 E79.32376
G1 X132.972 Y99.55 E79.408
G1 X132.972 Y101.084 E79.49219
G1 X134.506 Y101.084 E79.57637
G1 X134.506 Y104.153 E79.74479
G1 X136.04 Y104.153 E79.82898
G1 X136.04 Y107.221 E79.99735
G1 X137.574 Y107.221 E80.08153
G1 X137.574 Y108.755 E80.16572
G1 X139.109 Y108.755 E80.24996
G1 X139.109 Y111.824 E80.41838
G1 X140.643 Y111.824 E80.50257
G1 X140.643 Y113.358 E80.58675
G0 F3600 X140.843 Y113.358
G1 F1500 E74.08675
G0 F3600 X140.843 Y113.658
G0 X139.035 Y112.206
G0 X128.983 Y98.936
G0 X127.916 Y100.003
G0 X126.382 Y100.003
G0 X118.259 Y92.353
G0 X118.259 Y91.277
G1 F1500 E80.58675
G0 F3600 X118.552 Y91.488
G1 F3000 X105.014 Y91.488 E81.32971
G1 X100.874 Y79.06 E82.04859
G1 X114.412 Y79.06 E82.79155
G1 X118.552 Y91.488 E83.51043
G0 F3600 X118.352 Y91.488
G1 F1500 E77.01043
G0 F3600 X118.194 Y91.23
G0 X101.167 Y79.271
G0 X100.026 Y78.449
G0 X99.861 Y77.47
G1 F1500 E83.51043
G0 F3600 X99.942 Y77.528
G1 F3000 X100.319 Y78.66 E83.57591
G1 X91.016 Y78.66 E84.08645
G1 X91.016 Y78.506 E84.0949
G1 X77.093 Y78.506 E84.85899
G1 X77.093 Y78.66 E84.86744
G1 X56.242 Y78.66 E86.01173
G1 X56.242 Y78.506 E86.02018
G1 X48.115 Y78.506 E86.46618
G1 X48.115 Y78.66 E86.47463
G1 X28.981 Y78.66 E87.52469
G1 X28.981 Y77.06 E87.6125
G1 X171.019 Y77.06 E95.40743
G1 X171.019 Y78.66 E95.49524
G1 X150.248 Y78.66 E96.63514
G1 X150.248 Y77.67 E96.68947
G1 X143.711 Y77.67 E97.04821
G1 X143.711 Y78.66 E97.10254
G1 X114.7 Y78.66 E98.69464
G1 X114.323 Y77.528 E98.76012
G1 X99.942 Y77.528 E99.54934
G0 F3600 X100.005 Y77.717
G1 F1500 E93.04934
G0 F3600 X100.005 Y77.428
G0 X96.112 Y78.44
G0 X96.112 Y79.525
G0 X96.112 Y81.905
G0 X96.112 Y82.99
G0 X93.176 Y84.074
G0 X93.176 Y82.142
G0 X89.312 Y82.142
G0 X89.312 Y80.21
G0 X86.524 Y80.21
G0 X82.661 Y82.142
G0 X80.729 Y86.006
G0 X80.729 Y117.772
G0 X96.112 Y121.408
G1 F1500 E99.54934
G0 F3600 X96.412 Y121.408
G1 F3000 X98.344 Y121.408 E99.65537
G1 X98.344 Y122.94 E99.73944
G1 X50.447 Y122.94 E102.36799
G1 X50.447 Y121.008 E102.47402
G1 X48.515 Y121.008 E102.58004
G1 X48.515 Y119.076 E102.68607
G1 X46.583 Y119.076 E102.7921
G1 X46.583 Y117.144 E102.89812
G1 X44.651 Y117.144 E103.00415
G1 X44.651 Y113.28 E103.2162
G1 X42.719 Y113.28 E103.32223
G1 X42.719 Y109.816 E103.51233
G1 X44.251 Y109.816 E103.59641
G1 X44.251 Y111.748 E103.70243
G1 X46.183 Y111.748 E103.80846
G1 X46.183 Y113.68 E103.91449
G1 X48.115 Y113.68 E104.02051
G1 X48.115 Y115.612 E104.12654
G1 X50.047 Y115.612 E104.23257
G1 X50.047 Y117.544 E104.33859
G1 X58.174 Y117.544 E104.7846
G1 X58.174 Y107.485 E105.33663
G1 X56.242 Y107.485 E105.44265
G1 X56.242 Y97.825 E105.97279
G1 X54.311 Y97.825 E106.07876
G1 X54.311 Y92.03 E106.39678
G1 X52.379 Y92.03 E106.50281
G1 X52.379 Y90.098 E106.60884
G1 X50.447 Y90.098 E106.71486
G1 X50.447 Y86.234 E106.92692
G1 X48.515 Y86.234 E107.03294
G1 X48.515 Y84.302 E107.13897
G1 X46.583 Y84.302 E107.245
G1 X46.583 Y80.838 E107.4351
G1 X48.515 Y80.838 E107.54113
G1 X48.515 Y79.06 E107.6387
G1 X55.842 Y79.06 E108.0408
G1 X55.842 Y82.77 E108.2444
G1 X57.774 Y82.77 E108.35043
G1 X57.774 Y90.498 E108.77454
G1 X59.706 Y90.498 E108.88056
G1 X59.706 Y102.089 E109.51667
G1 X61.638 Y102.089 E109.62269
G1 X61.638 Y117.544 E110.47085
G1 X75.561 Y117.544 E111.23494
G1 X75.561 Y113.28 E111.46894
G1 X73.629 Y113.28 E111.57497
G1 X73.629 Y86.634 E113.03728
G1 X75.561 Y86.634 E113.14331
G1 X75.561 Y80.838 E113.46139
G1 X77.493 Y80.838 E113.56741
G1 X77.493 Y79.06 E113.66499
G1 X90.616 Y79.06 E114.38517
G1 X90.616 Y80.838 E114.48274
G1 X94.48 Y80.838 E114.6948
G1 X94.48 Y82.77 E114.80082
G1 X96.412 Y82.77 E114.90685
G1 X96.412 Y84.302 E114.99093
G1 X92.948 Y84.302 E115.18103
G1 X92.948 Y82.37 E115.28705
G1 X89.084 Y82.37 E115.49911
G1 X89.084 Y80.438 E115.60513
G1 X86.752 Y80.438 E115.73311
G1 X86.752 Y82.37 E115.83914
G1 X82.889 Y82.37 E116.05114
G1 X82.889 Y86.234 E116.26319
G1 X80.957 Y86.234 E116.36922
G1 X80.957 Y117.544 E118.08749
G1 X94.48 Y117.544 E118.82962
G1 X94.48 Y119.476 E118.93564
G1 X96.412 Y119.476 E119.04167
G1 X96.412 Y121.408 E119.1477
G0 F3600 X96.612 Y121.408
G0 X96.612 Y121.708
G0 X95.622 Y122.15
;TYPE:SKIN
G1 F3000 X51.237 Y122.15 E121.58351
G1 X51.237 Y120.218 E121.68954
G1 X49.305 Y120.218 E121.79556
G1 X49.305 Y118.334 E121.89896
G1 X58.964 Y118.334 E122.42904
G1 X58.964 Y106.695 E123.06778
G1 X57.032 Y106.695 E123.1738
G1 X57.032 Y97.035 E123.70394
G1 X55.101 Y97.035 E123.80991
G1 X55.101 Y91.24 E124.12793
G1 X53.169 Y91.24 E124.23396
G1 X53.169 Y89.308 E124.33999
G1 X51.237 Y89.308 E124.44601
G1 X51.237 Y85.444 E124.65807
G1 X49.305 Y85.444 E124.76409
G1 X49.305 Y83.512 E124.87012
G1 X47.373 Y83.512 E124.97615
G1 X47.373 Y81.628 E125.07954
G1 X49.305 Y81.628 E125.18556
G1 X49.305 Y79.85 E125.28314
G1 X55.052 Y79.85 E125.59853
G1 X55.052 Y83.56 E125.80213
G1 X56.984 Y83.56 E125.90816
G1 X56.984 Y91.288 E126.33227
G1 X58.916 Y91.288 E126.43829
