;FLAVOR:Marlin
;TIME:5413
;Filament used: 6.03733m
;Layer height: 0.2
;MINX:56.211
;MINY:44.495
;MINZ:0.3
;MAXX:149.651
;MAXY:115.565
;MAXZ:6.7
;Generated with Cura_SteamEngine 4.13.1
M140 S50
M105
M190 S50
M104 S190
M105
M109 S190
M82 ;absolute extrusion mode
G28 ;Home
G1 Z15.0 F6000 ;Move the platform down 15mm
;Prime the extruder
G92 E0
G1 F200 E3
G92 E0
G92 E0
G92 E0
G1 F1500 E-6.5
;LAYER_COUNT:33
;LAYER:0
M107
M204 S900
G0 F3600 X57.199 Y46.046 Z0.3
;TYPE:SKIRT
G1 F1500 E0
G1 F3000 X57.56 Y45.67 E0.02861
G1 X57.76 Y45.492 E0.0433
G1 X58.275 Y45.118 E0.07823
G1 X58.926 Y44.806 E0.11785
G1 X59.507 Y44.618 E0.15136
G1 X60.28 Y44.514 E0.19416
G1 X60.536 Y44.501 E0.20823
G1 X61.063 Y44.495 E0.23715
G1 X99.364 Y44.495 E2.33908
G1 X100.1 Y44.506 E2.37948
G1 X100.365 Y44.521 E2.39404
G1 X101.668 Y44.649 E2.4659
G1 X104.416 Y44.879 E2.61723
G1 X107.134 Y45.029 E2.76662
G1 X111.142 Y45.112 E2.98662
G1 X144.487 Y45.112 E4.81657
G1 X145.211 Y45.123 E4.85631
G1 X145.792 Y45.178 E4.88833
G1 X146.405 Y45.321 E4.92288
G1 X146.611 Y45.391 E4.93482
G1 X147.217 Y45.671 E4.97145
G1 X147.412 Y45.787 E4.98391
G1 X147.825 Y46.079 E5.01166
G1 X148.267 Y46.511 E5.04558
G1 X148.644 Y46.99 E5.07903
G1 X148.791 Y47.218 E5.09392
G1 X149.084 Y47.792 E5.12929
G1 X149.28 Y48.441 E5.16649
G1 X149.376 Y49.04 E5.19979
G1 X149.398 Y49.587 E5.22983
G1 X149.4 Y49.691 E5.23554
G1 X149.4 Y71.203 E6.4161
G1 X149.439 Y73.982 E6.56862
G1 X149.589 Y77.284 E6.75002
G1 X149.634 Y78.001 E6.78945
G1 X149.651 Y78.75 E6.83056
G1 X149.651 Y109.934 E8.54192
G1 X149.639 Y110.719 E8.585
G1 X149.56 Y111.401 E8.62268
G1 X149.503 Y111.662 E8.63734
G1 X149.357 Y112.146 E8.66509
G1 X149.066 Y112.738 E8.70129
G1 X148.683 Y113.304 E8.73879
G1 X148.301 Y113.705 E8.76919
G1 X148.101 Y113.883 E8.78388
G1 X147.586 Y114.257 E8.81881
G1 X146.935 Y114.569 E8.85843
G1 X146.354 Y114.757 E8.89194
G1 X145.581 Y114.861 E8.93474
G1 X145.325 Y114.874 E8.94881
G1 X144.798 Y114.88 E8.97773
G1 X112.121 Y114.88 E10.77102
G1 X109.324 Y114.92 E10.92453
G1 X106.607 Y115.035 E11.07377
G1 X103.889 Y115.228 E11.22331
G1 X102.581 Y115.364 E11.29548
G1 X102.343 Y115.37 E11.30855
G1 X100.61 Y115.541 E11.40411
G1 X100.339 Y115.557 E11.41901
G1 X99.758 Y115.565 E11.4509
G1 X61.448 Y115.565 E13.55332
G1 X60.724 Y115.554 E13.59306
G1 X60.143 Y115.499 E13.62509
G1 X59.522 Y115.353 E13.6601
G1 X59.315 Y115.282 E13.67211
G1 X58.721 Y115.008 E13.708
G1 X58.527 Y114.893 E13.72038
G1 X58.061 Y114.556 E13.75194
G1 X57.571 Y114.054 E13.79044
G1 X57.268 Y113.653 E13.81802
G1 X57.136 Y113.446 E13.83149
G1 X56.899 Y112.999 E13.85926
G1 X56.725 Y112.51 E13.88774
G1 X56.589 Y111.846 E13.92494
G1 X56.54 Y111.223 E13.95924
G1 X56.535 Y110.793 E13.98284
G1 X56.535 Y89.181 E15.16889
G1 X56.495 Y86.383 E15.32245
G1 X56.38 Y83.659 E15.47208
G1 X56.312 Y82.739 E15.5227
G1 X56.221 Y81.221 E15.60616
G1 X56.211 Y80.641 E15.638
G1 X56.211 Y49.402 E17.35237
G1 X56.223 Y48.644 E17.39397
G1 X56.295 Y48.01 E17.42899
G1 X56.356 Y47.724 E17.44504
G1 X56.547 Y47.127 E17.47944
G1 X56.854 Y46.532 E17.51618
G1 X57.199 Y46.046 E17.54889
G1 F1500 E11.04889
;MESH:1.stl
G0 F3600 X77.045 Y56.61
G0 X77.756 Y55.366
G0 X78.437 Y54.326
G1 F1500 E17.54889
G0 F3600 X78.525 Y54.226
;TYPE:WALL-OUTER
G1 F3000 X77.745 Y55.404 E17.62642
G1 X77.753 Y54.974 E17.65002
G1 X77.753 Y54.226 E17.69107
G1 X78.525 Y54.226 E17.73344
G0 F3600 X78.415 Y54.392
G0 X78.083 Y54.626
G1 F1500 E11.23344
G0 F3600 X77.756 Y55.366
G0 X77.045 Y56.61
G0 X83.399 Y52.596
G0 X86.209 Y54.736
G0 X86.694 Y55.604
;TYPE:WALL-INNER
G1 F1500 E17.73344
G1 F3000 X86.57 Y56.046 E17.75863
G1 X86.494 Y55.867 E17.75925
G1 X86.418 Y55.409 E17.77981
G1 X86.389 Y54.741 E17.81651
G1 X86.403 Y54.27 E17.84237
G1 X86.465 Y53.748 E17.87121
G1 X86.571 Y53.448 E17.88868
G1 X86.67 Y53.738 E17.89343
G1 X86.73 Y54.267 E17.91291
G1 X86.74 Y54.987 E17.94687
G1 X86.694 Y55.604 E17.97719
G0 F3600 X86.848 Y56.364
;TYPE:WALL-OUTER
G1 F3000 X86.655 Y56.46 E17.98902
G1 X86.412 Y56.438 E18.00241
G1 X86.244 Y56.303 E18.01424
G1 X86.107 Y55.978 E18.0336
G1 X86.019 Y55.452 E18.06287
G1 X85.989 Y54.747 E18.10159
G1 X86.003 Y54.245 E18.12915
G1 X86.072 Y53.664 E18.16126
G1 X86.193 Y53.273 E18.18372
G1 X86.353 Y53.088 E18.19714
G1 X86.571 Y53.031 E18.20951
G1 X86.791 Y53.088 E18.22198
G1 X86.949 Y53.275 E18.23542
G1 X87.063 Y53.657 E18.25729
G1 X87.13 Y54.247 E18.28988
G1 X87.14 Y55 E18.33121
G1 X87.091 Y55.659 E18.36747
G1 X86.988 Y56.123 E18.39356
G1 X86.848 Y56.364 E18.40885
G0 F3600 X86.669 Y56.453
G0 X86.716 Y56.18
G1 F1500 E11.90885
G0 F3600 X86.643 Y56.159
G0 X88.257 Y60.277
G0 X90.723 Y69.02
G0 X93.522 Y69.034
G0 X94.317 Y69.374
G1 F1500 E18.40885
G0 F3600 X94.359 Y69.468
G1 F3000 X94.088 Y69.521 E18.42401
G1 X93.777 Y69.455 E18.44145
G1 X93.607 Y69.288 E18.45453
G1 X93.506 Y69.023 E18.4701
G1 X94.684 Y69.023 E18.53474
G1 X94.556 Y69.315 E18.55224
G1 X94.359 Y69.468 E18.56593
G0 F3600 X94.163 Y69.506
G0 X94.088 Y69.423
G1 F1500 E12.06593
G0 F3600 X94.089 Y69.419
G0 X93.522 Y69.034
G0 X90.689 Y69.034
G0 X74.643 Y70.86
G0 X75.354 Y69.617
G0 X76.034 Y68.576
G1 F1500 E18.56593
G0 F3600 X76.122 Y68.476
G1 F3000 X75.342 Y69.655 E18.64351
G1 X75.349 Y69.393 E18.65789
G1 X75.35 Y68.476 E18.70822
G1 X76.122 Y68.476 E18.75058
G0 F3600 X76.012 Y68.642
G0 X75.68 Y68.876
G1 F1500 E12.25058
G0 F3600 X73.602 Y68.88
G0 X72.73 Y68.876
;TYPE:WALL-INNER
G1 F1500 E18.75058
G1 F3000 X73.402 Y68.876 E18.78746
G1 X73.402 Y72.384 E18.97998
G1 X75.406 Y72.384 E19.08996
G1 X77.481 Y69.328 E19.29268
G1 X78.133 Y68.367 E19.35641
G1 X78.133 Y67.591 E19.39899
G1 X78.133 Y66.762 E19.44449
G1 X75.75 Y66.762 E19.57527
G1 X75.75 Y65.606 E19.63871
G1 X73.402 Y65.606 E19.76756
G1 X73.402 Y66.762 E19.831
G1 X72.73 Y66.762 E19.86788
G1 X72.73 Y68.876 E19.9839
G0 F3600 X70.828 Y65.604
G1 F3000 X71.417 Y65.656 E20.01635
G1 X72.006 Y65.604 E20.04879
G1 X72.577 Y65.451 E20.08124
G1 X73.111 Y65.202 E20.11357
G1 X73.594 Y64.864 E20.14592
G1 X74.012 Y64.445 E20.1784
G1 X74.35 Y63.963 E20.21071
G1 X74.601 Y63.427 E20.24319
G1 X74.753 Y62.857 E20.27557
G1 X74.806 Y62.268 E20.30802
G1 X74.753 Y61.679 E20.34048
G1 X74.601 Y61.108 E20.3729
G1 X74.351 Y60.574 E20.40526
G1 X74.013 Y60.09 E20.43766
G1 X73.594 Y59.673 E20.4701
G1 X73.112 Y59.333 E20.50247
G1 X72.576 Y59.084 E20.5349
G1 X72.006 Y58.931 E20.56729
G1 X71.417 Y58.879 E20.59974
G1 X70.828 Y58.931 E20.63219
G1 X70.257 Y59.084 E20.66463
G1 X69.723 Y59.333 E20.69697
G1 X69.239 Y59.672 E20.7294
G1 X68.821 Y60.09 E20.76184
G1 X68.483 Y60.574 E20.79424
G1 X68.233 Y61.108 E20.82659
G1 X68.081 Y61.679 E20.85902
G1 X68.028 Y62.268 E20.89148
G1 X68.081 Y62.857 E20.92393
G1 X68.233 Y63.427 E20.9563
G1 X68.484 Y63.963 E20.98879
G1 X68.821 Y64.445 E21.02106
G1 X69.239 Y64.864 E21.05354
G1 X69.723 Y65.202 E21.08594
G1 X70.257 Y65.451 E21.11827
G1 X70.828 Y65.604 E21.15071
G0 F3600 X71.052 Y73.782
G1 F3000 X71.538 Y75.118 E21.22873
G1 X60.811 Y74.705 E21.81786
G1 X60.811 Y79.762 E22.09538
G1 X73.057 Y79.291 E22.76793
G1 X73.343 Y80.077 E22.81383
G1 X60.011 Y80.523 E23.54589
G1 X60.011 Y73.945 E23.90689
G1 X62.044 Y74.011 E24.01852
G1 X62.345 Y73.209 E24.06553
G1 X62.345 Y72.62 E24.09785
G1 X62.144 Y72.07 E24.12999
G1 X61.761 Y71.618 E24.1625
G1 X61.26 Y71.328 E24.19427
G1 X60.675 Y71.227 E24.22685
G1 X60.099 Y71.332 E24.25898
G1 X60.011 Y71.383 E24.26456
G1 X60.011 Y48.779 E25.50505
G1 X60.1 Y48.491 E25.52159
G1 X60.329 Y48.323 E25.53718
G1 X60.506 Y48.295 E25.54701
G1 X69.257 Y48.295 E26.02726
G1 X68.981 Y48.626 E26.05091
G1 X68.784 Y49.165 E26.08241
G1 X68.784 Y49.742 E26.11407
G1 X68.982 Y50.284 E26.14574
G1 X69.356 Y50.726 E26.17752
G1 X69.855 Y51.012 E26.20908
G1 X70.421 Y51.111 E26.24061
G1 X70.987 Y51.008 E26.27218
G1 X71.484 Y50.72 E26.30371
G1 X71.852 Y50.282 E26.3351
G1 X72.048 Y49.741 E26.36668
G1 X72.048 Y49.166 E26.39824
G1 X71.852 Y48.626 E26.42976
G1 X71.573 Y48.295 E26.45352
G1 X73.868 Y48.295 E26.57947
G1 X74.432 Y48.295 E26.61042
G1 X74.999 Y48.295 E26.64154
G1 X85.464 Y48.295 E27.21585
G1 X86.028 Y48.295 E27.2468
G1 X86.595 Y48.295 E27.27792
G1 X88.9 Y48.295 E27.40441
G1 X88.622 Y48.626 E27.42813
G1 X88.426 Y49.166 E27.45966
G1 X88.426 Y49.741 E27.49122
G1 X88.622 Y50.284 E27.5229
G1 X88.998 Y50.727 E27.55479
G1 X89.496 Y51.012 E27.58627
G1 X90.065 Y51.111 E27.61797
G1 X90.63 Y51.008 E27.64949
G1 X91.125 Y50.719 E27.68094
G1 X91.492 Y50.283 E27.71222
G1 X91.69 Y49.742 E27.74383
G1 X91.69 Y49.165 E27.7755
G1 X91.492 Y48.625 E27.80706
G1 X91.214 Y48.295 E27.83074
G1 X99.985 Y48.295 E28.31209
G1 X100.286 Y48.388 E28.32938
G1 X100.452 Y48.618 E28.34495
G1 X100.478 Y48.788 E28.35438
G1 X100.478 Y65.606 E29.27734
G1 X98.193 Y65.606 E29.40274
G1 X98.193 Y67.809 E29.52364
G1 X96.678 Y67.809 E29.60678
G1 X96.66 Y67.607 E29.61791
G1 X96.462 Y66.978 E29.6541
G1 X96.125 Y66.446 E29.68866
G1 X95.663 Y66.018 E29.72322
G1 X95.124 Y65.737 E29.75658
G1 X94.539 Y65.576 E29.78988
G1 X93.925 Y65.527 E29.82368
G1 X93.335 Y65.556 E29.8561
G1 X92.713 Y65.677 E29.89087
G1 X91.954 Y65.989 E29.93591
G1 X91.954 Y65.606 E29.95693
G1 X90.695 Y65.606 E30.02602
G1 X90.143 Y65.606 E30.05631
G1 X89.59 Y65.606 E30.08666
G1 X89.59 Y68.346 E30.23703
G1 X89.559 Y68.593 E30.25069
G1 X89.509 Y68.687 E30.25654
G1 X89.379 Y68.787 E30.26554
G1 X89.216 Y68.838 E30.27491
G1 X88.9 Y68.854 E30.29227
G1 X88.119 Y68.705 E30.33591
G1 X87.941 Y71.041 E30.46448
G1 X88.919 Y71.152 E30.51849
G1 X89.49 Y71.087 E30.55003
G1 X89.954 Y70.889 E30.57772
G1 X89.998 Y71.072 E30.58805
G1 X91.954 Y71.072 E30.69539
G1 X91.954 Y70.028 E30.75268
G1 X92.094 Y70.265 E30.76779
G1 X92.495 Y70.66 E30.79868
G1 X92.977 Y70.939 E30.82924
G1 X93.518 Y71.101 E30.86024
G1 X94.129 Y71.152 E30.89388
G1 X94.735 Y71.09 E30.92732
G1 X95.298 Y70.905 E30.95984
G1 X95.798 Y70.593 E30.99218
G1 X96.192 Y70.173 E31.02378
G1 X96.303 Y69.978 E31.0361
G1 X98.193 Y69.978 E31.13982
G1 X98.193 Y70.215 E31.15283
G1 X96.162 Y70.215 E31.22044
G1 X96.162 Y72.384 E31.33948
G1 X100.478 Y72.384 E31.57633
G1 X100.478 Y73.289 E31.626
G1 X100.389 Y73.586 E31.64302
G1 X100.16 Y73.754 E31.6586
G1 X99.982 Y73.782 E31.66849
G1 X71.052 Y73.782 E33.25615
G0 F3600 X76.765 Y72.384
G1 F3000 X79.101 Y72.384 E33.38434
G1 X79.943 Y70.124 E33.5167
G1 X80.33 Y69.085 E33.57755
G1 X80.33 Y70.194 E33.60847
G1 X80.33 Y71.072 E33.65665
G1 X86.936 Y71.072 E34.01919
G1 X86.936 Y68.997 E34.13306
G1 X86.045 Y68.997 E34.18196
G1 X86.045 Y65.606 E34.36805
G1 X83.681 Y65.606 E34.49779
G1 X83.681 Y66.324 E34.53719
G1 X83.681 Y66.729 E34.55942
G1 X83.681 Y67.351 E34.59355
G1 X83.681 Y68.997 E34.68388
G1 X83.592 Y68.997 E34.68877
G1 X83.592 Y67.351 E34.70887
G1 X83.518 Y66.729 E34.71981
G1 X83.355 Y66.324 E34.73494
G1 X83.096 Y65.99 E34.75814
G1 X82.762 Y65.745 E34.78087
G1 X82.224 Y65.559 E34.81211
G1 X81.713 Y65.527 E34.84021
G1 X81.233 Y65.606 E34.86691
G1 X79.29 Y65.606 E34.97354
G1 X78.516 Y67.682 E35.09513
G1 X78.246 Y68.409 E35.12301
G1 X77.841 Y69.498 E35.16461
G1 X76.765 Y72.384 E35.33364
G0 F3600 X78.984 Y72.216
G0 X80.502 Y69.169
G0 X81.228 Y68.997
G1 F3000 X80.363 Y68.997 E35.38111
G1 X80.757 Y67.939 E35.44307
G1 X81.228 Y67.729 E35.47137
G1 X81.228 Y68.997 E35.54096
G0 F3600 X80.502 Y69.169
G0 X80.502 Y70.9
G0 X86.764 Y70.9
G0 X88.395 Y65.604
G1 F3000 X88.983 Y65.656 E35.57335
G1 X89.572 Y65.604 E35.6058
G1 X90.143 Y65.451 E35.61338
G1 X90.677 Y65.202 E35.63635
G1 X91.161 Y64.864 E35.66875
G1 X91.578 Y64.445 E35.70119
G1 X91.918 Y63.963 E35.73356
G1 X92.167 Y63.427 E35.766
G1 X92.32 Y62.857 E35.79839
G1 X92.372 Y62.268 E35.83084
G1 X92.32 Y61.679 E35.86329
G1 X92.167 Y61.108 E35.89573
G1 X91.918 Y60.574 E35.92806
G1 X91.579 Y60.09 E35.96049
G1 X91.161 Y59.672 E35.99293
G1 X90.677 Y59.333 E36.02536
G1 X90.143 Y59.084 E36.0577
G1 X89.572 Y58.931 E36.09014
G1 X88.983 Y58.879 E36.12259
G1 X88.395 Y58.931 E36.15498
G1 X87.825 Y59.084 E36.18737
G1 X87.289 Y59.333 E36.2198
G1 X86.806 Y59.672 E36.25219
G1 X86.387 Y60.09 E36.28467
G1 X86.049 Y60.574 E36.31707
G1 X85.8 Y61.108 E36.3494
G1 X85.647 Y61.679 E36.38184
G1 X85.595 Y62.268 E36.41429
G1 X85.647 Y62.857 E36.44674
G1 X85.8 Y63.428 E36.47918
G1 X86.049 Y63.962 E36.51152
G1 X86.387 Y64.445 E36.54387
G1 X86.806 Y64.864 E36.57639
G1 X87.289 Y65.202 E36.60874
G1 X87.825 Y65.451 E36.64118
G1 X88.395 Y65.604 E36.67356
G0 F3600 X87.369 Y65.061
G0 X86.51 Y64.34
G0 X85.95 Y63.369
G0 X84.585 Y56.993
G0 X83.585 Y55.236
G1 F3000 X82.879 Y55.769 E36.72211
G1 X82.529 Y55.963 E36.74407
G1 X82.281 Y56.02 E36.75804
G1 X82.159 Y56.005 E36.76478
G1 X82.176 Y55.815 E36.77156
G1 X82.292 Y55.578 E36.78604
G1 X82.825 Y54.953 E36.83112
G1 X83.153 Y54.606 E36.85732
G1 X83.787 Y53.965 E36.9068
G1 X84.105 Y53.644 E36.9316
G1 X84.034 Y54.209 E36.94781
G1 X84.017 Y54.75 E36.97752
G1 X84.059 Y55.544 E37.02115
G1 X84.12 Y55.867 E37.03919
G1 X83.585 Y55.236 E37.08459
G0 F3600 X84.905 Y57.352
G0 X85.364 Y57.75
G0 X85.931 Y57.986
G0 X86.57 Y58.062
G0 X87.228 Y57.986
G0 X88.005 Y57.605
G0 X88.704 Y56.541
G0 X88.897 Y55.159
G0 X89.374 Y54.101
G1 F3000 X89.1 Y54.446 E37.10877
G1 X89.074 Y53.955 E37.12177
G1 X88.999 Y53.548 E37.14448
G1 X89.921 Y53.548 E37.19508
G1 X89.374 Y54.101 E37.2348
G0 F3600 X88.74 Y55.247
G0 X88.704 Y56.541
G0 X88.395 Y57.18
G0 X87.638 Y57.839
G0 X86.856 Y58.028
G0 X75.804 Y58.134
G1 F3000 X77.808 Y58.134 E37.34477
G1 X79.532 Y55.597 E37.51311
G1 X79.871 Y55.098 E37.54621
G1 X80.22 Y54.584 E37.58031
G1 X80.536 Y54.118 E37.61121
G1 X80.536 Y53.548 E37.64249
G1 X81.193 Y53.548 E37.67855
G1 X80.646 Y54.101 E37.70305
G1 X80.248 Y54.602 E37.71154
G1 X79.951 Y55.152 E37.71721
G1 X79.794 Y55.774 E37.7361
G1 X79.797 Y56.43 E37.7721
G1 X79.933 Y56.906 E37.79927
G1 X80.176 Y57.331 E37.82614
G1 X80.533 Y57.698 E37.85424
G1 X81.099 Y58.028 E37.89019
G1 X81.602 Y58.17 E37.91887
G1 X82.318 Y58.21 E37.95823
G1 X82.925 Y58.141 E37.99176
G1 X83.548 Y57.933 E38.0278
G1 X84.133 Y57.586 E38.06513
G1 X84.614 Y57.194 E38.09918
G1 X84.781 Y57.457 E38.11628
G1 X85.279 Y57.888 E38.15242
G1 X85.889 Y58.143 E38.18871
G1 X86.568 Y58.223 E38.22623
G1 X87.268 Y58.143 E38.26489
G1 X87.706 Y57.986 E38.29043
G1 X88.109 Y57.729 E38.31666
G1 X88.53 Y57.272 E38.35076
G1 X88.691 Y56.959 E38.37007
G1 X88.904 Y57.331 E38.38365
G1 X89.261 Y57.698 E38.41175
G1 X89.827 Y58.028 E38.44771
G1 X90.33 Y58.17 E38.47639
G1 X91.047 Y58.21 E38.5158
G1 X91.653 Y58.141 E38.54927
G1 X92.276 Y57.933 E38.58532
G1 X92.861 Y57.586 E38.62264
G1 X93.714 Y56.891 E38.68303
G1 X92.313 Y55.236 E38.80203
G1 X91.607 Y55.769 E38.85057
G1 X91.262 Y55.961 E38.87224
G1 X91.008 Y56.02 E38.88655
G1 X90.887 Y56.004 E38.89325
G1 X90.904 Y55.815 E38.89996
G1 X91.02 Y55.578 E38.91444
G1 X91.553 Y54.953 E38.95952
G1 X91.881 Y54.606 E38.98572
G1 X93.448 Y53.022 E39.108
G1 X93.448 Y51.356 E39.19943
G1 X90.63 Y51.356 E39.35408
G1 X90.065 Y51.356 E39.37703
G1 X89.496 Y51.356 E39.4
G1 X88.35 Y51.356 E39.46289
G1 X88.35 Y52.035 E39.50015
G1 X87.867 Y51.613 E39.51885
G1 X87.255 Y51.355 E39.5553
G1 X87.152 Y51.343 E39.56099
G1 X87.47 Y50.965 E39.5881
G1 X87.667 Y50.424 E39.61969
G1 X87.667 Y49.847 E39.65136
G1 X87.469 Y49.306 E39.68297
G1 X87.096 Y48.863 E39.71475
G1 X86.595 Y48.577 E39.74641
G1 X86.028 Y48.479 E39.76495
G1 X85.464 Y48.581 E39.78358
G1 X84.97 Y48.866 E39.81488
G1 X84.6 Y49.307 E39.84647
G1 X84.403 Y49.847 E39.87802
G1 X84.403 Y50.424 E39.90968
G1 X84.601 Y50.966 E39.94135
G1 X84.974 Y51.408 E39.97309
G1 X85.3 Y51.594 E39.99369
G1 X85.026 Y51.771 E40.00265
G1 X84.72 Y52.104 E40.02747
G1 X84.72 Y51.356 E40.06553
G1 X79.622 Y51.356 E40.3453
G1 X79.622 Y52.512 E40.40874
G1 X78.153 Y52.512 E40.48936
G1 X78.153 Y51.356 E40.5528
G1 X75.804 Y51.356 E40.68171
G1 X75.804 Y52.512 E40.74515
G1 X75.133 Y52.512 E40.78198
G1 X75.133 Y54.626 E40.89799
G1 X75.804 Y54.626 E40.93481
G1 X75.804 Y58.134 E41.12733
G0 F3600 X73.878 Y51.694
G1 F3000 X74.445 Y51.793 E41.15892
G1 X75.006 Y51.691 E41.19021
G1 X75.504 Y51.406 E41.2217
G1 X75.874 Y50.965 E41.25329
G1 X76.071 Y50.424 E41.28489
G1 X76.071 Y49.847 E41.31655
G1 X75.873 Y49.306 E41.34817
G1 X75.5 Y48.863 E41.37995
G1 X74.999 Y48.577 E41.41161
G1 X74.432 Y48.479 E41.43014
