;FLAVOR:Marlin
;TIME:5494
;Filament used: 6.07239m
;Layer height: 0.2
;MINX:56.211
;MINY:43.841
;MINZ:0.3
;MAXX:148.915
;MAXY:115.565
;MAXZ:6.7
;Generated with Cura_SteamEngine 4.13.1
M140 S50
M105
M190 S50
M104 S190
M105
M109 S190
M82 ;absolute extrusion mode
G28 ;Home
G1 Z15.0 F6000 ;Move the platform down 15mm
;Prime the extruder
G92 E0
G1 F200 E3
G92 E0
G92 E0
G92 E0
G1 F1500 E-6.5
;LAYER_COUNT:33
;LAYER:0
M107
M204 S900
G0 F3600 X57.206 Y46.038 Z0.3
;TYPE:SKIRT
G1 F1500 E0
G1 F3000 X57.565 Y45.665 E0.02841
G1 X57.762 Y45.49 E0.04287
G1 X58.275 Y45.118 E0.07765
G1 X58.926 Y44.806 E0.11727
G1 X59.507 Y44.618 E0.15078
G1 X60.28 Y44.514 E0.19358
G1 X60.536 Y44.501 E0.20765
G1 X61.063 Y44.495 E0.23657
G1 X93.664 Y44.495 E2.02569
G1 X96.461 Y44.455 E2.1792
G1 X99.178 Y44.34 E2.32844
G1 X101.907 Y44.147 E2.47858
G1 X103.309 Y44.019 E2.55584
G1 X104.857 Y43.865 E2.64122
G1 X105.172 Y43.847 E2.65853
G1 X105.7 Y43.841 E2.68751
G1 X144.001 Y43.841 E4.78944
G1 X144.739 Y43.852 E4.82994
G1 X145.247 Y43.901 E4.85795
G1 X145.536 Y43.952 E4.87406
G1 X146.182 Y44.137 E4.91093
G1 X146.728 Y44.397 E4.94412
G1 X146.922 Y44.512 E4.9565
G1 X147.359 Y44.824 E4.98597
G1 X147.747 Y45.196 E5.01546
G1 X147.922 Y45.394 E5.02997
G1 X148.226 Y45.798 E5.05771
G1 X148.46 Y46.222 E5.08429
G1 X148.719 Y46.888 E5.12351
G1 X148.792 Y47.164 E5.13917
G1 X148.893 Y47.8 E5.17451
G1 X148.913 Y48.321 E5.20313
G1 X148.915 Y48.422 E5.20867
G1 X148.915 Y72.002 E6.50272
G1 X148.905 Y72.708 E6.54147
G1 X148.89 Y73.002 E6.55763
G1 X148.806 Y73.977 E6.61133
G1 X148.692 Y75.106 E6.67361
G1 X148.494 Y77.855 E6.82486
G1 X148.376 Y80.568 E6.97389
G1 X148.332 Y83.489 E7.13421
G1 X148.332 Y109.185 E8.54439
G1 X148.321 Y109.923 E8.58489
G1 X148.229 Y110.69 E8.62728
G1 X148.107 Y111.18 E8.655
G1 X147.931 Y111.616 E8.6808
G1 X147.585 Y112.226 E8.71929
G1 X147.449 Y112.414 E8.73202
G1 X146.983 Y112.928 E8.77009
G1 X146.783 Y113.106 E8.78479
G1 X146.268 Y113.48 E8.81972
G1 X145.617 Y113.792 E8.85934
G1 X145.036 Y113.98 E8.89285
G1 X144.263 Y114.084 E8.93565
G1 X144.007 Y114.097 E8.94972
G1 X143.48 Y114.103 E8.97864
G1 X117.492 Y114.103 E10.40484
G1 X114.695 Y114.143 E10.55836
G1 X111.978 Y114.258 E10.7076
G1 X109.231 Y114.453 E10.85873
G1 X106.527 Y114.721 E11.00785
G1 X103.796 Y115.07 E11.15894
G1 X102.184 Y115.314 E11.24842
G1 X101.101 Y115.487 E11.3086
G1 X100.339 Y115.557 E11.3506
G1 X99.758 Y115.565 E11.38249
G1 X61.448 Y115.565 E13.48491
G1 X60.724 Y115.554 E13.52465
G1 X60.143 Y115.499 E13.55667
G1 X59.522 Y115.353 E13.59168
G1 X59.315 Y115.282 E13.60369
G1 X58.721 Y115.008 E13.63959
G1 X58.527 Y114.893 E13.65197
G1 X58.061 Y114.556 E13.68353
G1 X57.571 Y114.054 E13.72203
G1 X57.141 Y113.455 E13.76249
G1 X56.902 Y113.009 E13.79026
G1 X56.721 Y112.495 E13.82017
G1 X56.589 Y111.845 E13.85657
G1 X56.543 Y111.304 E13.88636
G1 X56.535 Y110.787 E13.91474
G1 X56.535 Y89.181 E15.10046
G1 X56.495 Y86.384 E15.25397
G1 X56.381 Y83.683 E15.40233
G1 X56.313 Y82.741 E15.45416
G1 X56.221 Y81.221 E15.53773
G1 X56.211 Y80.641 E15.56957
G1 X56.211 Y49.402 E17.28394
G1 X56.223 Y48.644 E17.32554
G1 X56.295 Y48.01 E17.36056
G1 X56.356 Y47.724 E17.37661
G1 X56.547 Y47.127 E17.41101
G1 X56.854 Y46.532 E17.44775
G1 X57.206 Y46.038 E17.48104
G1 F1500 E10.98104
;MESH:1.stl
G0 F3600 X77.045 Y56.61
G0 X77.756 Y55.366
G0 X78.437 Y54.326
G1 F1500 E17.48104
G0 F3600 X78.525 Y54.226
;TYPE:WALL-OUTER
G1 F3000 X77.745 Y55.404 E17.55857
G1 X77.753 Y54.974 E17.58218
G1 X77.753 Y54.226 E17.62323
G1 X78.525 Y54.226 E17.66559
G0 F3600 X78.415 Y54.392
G0 X78.083 Y54.626
G1 F1500 E11.16559
G0 F3600 X77.756 Y55.366
G0 X77.045 Y56.61
G0 X83.399 Y52.596
G0 X86.209 Y54.736
G0 X86.694 Y55.604
;TYPE:WALL-INNER
G1 F1500 E17.66559
G1 F3000 X86.57 Y56.046 E17.69079
G1 X86.494 Y55.867 E17.69141
G1 X86.418 Y55.409 E17.71197
G1 X86.389 Y54.741 E17.74866
G1 X86.403 Y54.27 E17.77452
G1 X86.465 Y53.748 E17.80337
G1 X86.571 Y53.448 E17.82083
G1 X86.67 Y53.738 E17.82559
G1 X86.73 Y54.267 E17.84506
G1 X86.74 Y54.987 E17.87902
G1 X86.694 Y55.604 E17.90935
G0 F3600 X86.848 Y56.364
;TYPE:WALL-OUTER
G1 F3000 X86.655 Y56.46 E17.92118
G1 X86.412 Y56.438 E17.93457
G1 X86.244 Y56.303 E17.94639
G1 X86.107 Y55.978 E17.96575
G1 X86.019 Y55.452 E17.99502
G1 X85.989 Y54.747 E18.03374
G1 X86.003 Y54.245 E18.0613
G1 X86.072 Y53.664 E18.09341
G1 X86.193 Y53.273 E18.11587
G1 X86.353 Y53.088 E18.1293
G1 X86.571 Y53.031 E18.14166
G1 X86.791 Y53.088 E18.15413
G1 X86.949 Y53.275 E18.16757
G1 X87.063 Y53.657 E18.18945
G1 X87.13 Y54.247 E18.22203
G1 X87.14 Y55 E18.26336
G1 X87.091 Y55.659 E18.29963
G1 X86.988 Y56.123 E18.32571
G1 X86.848 Y56.364 E18.34101
G0 F3600 X86.669 Y56.453
G0 X86.716 Y56.18
G1 F1500 E11.84101
G0 F3600 X86.643 Y56.159
G0 X88.257 Y60.277
G0 X90.723 Y69.02
G0 X93.522 Y69.034
G0 X94.317 Y69.374
G1 F1500 E18.34101
G0 F3600 X94.359 Y69.468
G1 F3000 X94.088 Y69.521 E18.35616
G1 X93.777 Y69.455 E18.37361
G1 X93.607 Y69.288 E18.38669
G1 X93.506 Y69.023 E18.40225
G1 X94.684 Y69.023 E18.4669
G1 X94.556 Y69.315 E18.48439
G1 X94.359 Y69.468 E18.49808
G0 F3600 X94.163 Y69.506
G0 X94.088 Y69.423
G1 F1500 E11.99808
G0 F3600 X94.089 Y69.419
G0 X93.522 Y69.034
G0 X90.689 Y69.034
G0 X74.643 Y70.86
G0 X75.354 Y69.617
G0 X76.034 Y68.576
G1 F1500 E18.49808
G0 F3600 X76.122 Y68.476
G1 F3000 X75.342 Y69.655 E18.57566
G1 X75.349 Y69.393 E18.59005
G1 X75.35 Y68.476 E18.64037
G1 X76.122 Y68.476 E18.68274
G0 F3600 X76.012 Y68.642
G0 X75.68 Y68.876
G1 F1500 E12.18274
G0 F3600 X73.602 Y68.88
G0 X72.73 Y68.876
;TYPE:WALL-INNER
G1 F1500 E18.68274
G1 F3000 X73.402 Y68.876 E18.71962
G1 X73.402 Y72.384 E18.91213
G1 X75.406 Y72.384 E19.02211
G1 X77.481 Y69.328 E19.22483
G1 X78.133 Y68.367 E19.28856
G1 X78.133 Y67.591 E19.33115
G1 X78.133 Y66.762 E19.37664
G1 X75.75 Y66.762 E19.50742
G1 X75.75 Y65.606 E19.57086
G1 X73.402 Y65.606 E19.69971
G1 X73.402 Y66.762 E19.76316
G1 X72.73 Y66.762 E19.80003
G1 X72.73 Y68.876 E19.91605
G0 F3600 X70.828 Y65.604
G1 F3000 X71.417 Y65.656 E19.9485
G1 X72.006 Y65.604 E19.98095
G1 X72.577 Y65.451 E20.01339
G1 X73.111 Y65.202 E20.04572
G1 X73.594 Y64.864 E20.07808
G1 X74.012 Y64.445 E20.11056
G1 X74.35 Y63.963 E20.14286
G1 X74.601 Y63.427 E20.17534
G1 X74.753 Y62.857 E20.20772
G1 X74.806 Y62.268 E20.24017
G1 X74.753 Y61.679 E20.27263
G1 X74.601 Y61.108 E20.30506
G1 X74.351 Y60.574 E20.33741
G1 X74.013 Y60.09 E20.36981
G1 X73.594 Y59.673 E20.40225
G1 X73.112 Y59.333 E20.43462
G1 X72.576 Y59.084 E20.46706
G1 X72.006 Y58.931 E20.49945
G1 X71.417 Y58.879 E20.5319
G1 X70.828 Y58.931 E20.56434
G1 X70.257 Y59.084 E20.59679
G1 X69.723 Y59.333 E20.62912
G1 X69.239 Y59.672 E20.66155
G1 X68.821 Y60.09 E20.69399
G1 X68.483 Y60.574 E20.72639
G1 X68.233 Y61.108 E20.75875
G1 X68.081 Y61.679 E20.79117
G1 X68.028 Y62.268 E20.82363
G1 X68.081 Y62.857 E20.85608
G1 X68.233 Y63.427 E20.88846
G1 X68.484 Y63.963 E20.92094
G1 X68.821 Y64.445 E20.95321
G1 X69.239 Y64.864 E20.98569
G1 X69.723 Y65.202 E21.01809
G1 X70.257 Y65.451 E21.05043
G1 X70.828 Y65.604 E21.08287
G0 F3600 X71.052 Y73.782
G1 F3000 X71.538 Y75.118 E21.16089
G1 X60.811 Y74.705 E21.75001
G1 X60.811 Y79.762 E22.02754
G1 X73.057 Y79.291 E22.70008
G1 X73.343 Y80.077 E22.74599
G1 X60.011 Y80.523 E23.47805
G1 X60.011 Y73.945 E23.83904
G1 X62.044 Y74.011 E23.95067
G1 X62.345 Y73.209 E23.99768
G1 X62.345 Y72.62 E24.03
G1 X62.144 Y72.07 E24.06214
G1 X61.761 Y71.618 E24.09465
G1 X61.26 Y71.328 E24.12642
G1 X60.675 Y71.227 E24.159
G1 X60.099 Y71.332 E24.19113
G1 X60.011 Y71.383 E24.19671
G1 X60.011 Y48.779 E25.4372
G1 X60.1 Y48.491 E25.45375
G1 X60.329 Y48.323 E25.46933
G1 X60.506 Y48.295 E25.47917
G1 X69.257 Y48.295 E25.95942
G1 X68.981 Y48.626 E25.98307
G1 X68.784 Y49.165 E26.01456
G1 X68.784 Y49.742 E26.04623
G1 X68.982 Y50.284 E26.07789
G1 X69.356 Y50.726 E26.10967
G1 X69.855 Y51.012 E26.14123
G1 X70.421 Y51.111 E26.17277
G1 X70.987 Y51.008 E26.20434
G1 X71.484 Y50.72 E26.23586
G1 X71.852 Y50.282 E26.26726
G1 X72.048 Y49.741 E26.29883
G1 X72.048 Y49.166 E26.33039
G1 X71.852 Y48.626 E26.36192
G1 X71.573 Y48.295 E26.38567
G1 X73.868 Y48.295 E26.51162
G1 X74.432 Y48.295 E26.54257
G1 X74.999 Y48.295 E26.57369
G1 X85.464 Y48.295 E27.148
G1 X86.028 Y48.295 E27.17895
G1 X86.595 Y48.295 E27.21007
G1 X88.9 Y48.295 E27.33657
G1 X88.622 Y48.626 E27.36029
G1 X88.426 Y49.166 E27.39181
G1 X88.426 Y49.741 E27.42337
G1 X88.622 Y50.284 E27.45505
G1 X88.998 Y50.727 E27.48694
G1 X89.496 Y51.012 E27.51843
G1 X90.065 Y51.111 E27.55012
G1 X90.63 Y51.008 E27.58164
G1 X91.125 Y50.719 E27.6131
G1 X91.492 Y50.283 E27.64437
G1 X91.69 Y49.742 E27.67599
G1 X91.69 Y49.165 E27.70765
G1 X91.492 Y48.625 E27.73922
G1 X91.214 Y48.295 E27.7629
G1 X99.985 Y48.295 E28.24424
G1 X100.286 Y48.388 E28.26153
G1 X100.452 Y48.618 E28.2771
G1 X100.478 Y48.788 E28.28654
G1 X100.478 Y65.606 E29.20949
G1 X98.193 Y65.606 E29.33489
G1 X98.193 Y67.809 E29.45579
G1 X96.678 Y67.809 E29.53893
G1 X96.66 Y67.607 E29.55006
G1 X96.462 Y66.978 E29.58625
G1 X96.125 Y66.446 E29.62081
G1 X95.663 Y66.018 E29.65538
G1 X95.124 Y65.737 E29.68873
G1 X94.539 Y65.576 E29.72203
G1 X93.925 Y65.527 E29.75583
G1 X93.335 Y65.556 E29.78825
G1 X92.713 Y65.677 E29.82303
G1 X91.954 Y65.989 E29.86806
G1 X91.954 Y65.606 E29.88908
G1 X90.695 Y65.606 E29.95817
G1 X90.143 Y65.606 E29.98847
G1 X89.59 Y65.606 E30.01882
G1 X89.59 Y68.346 E30.16919
G1 X89.559 Y68.593 E30.18285
G1 X89.509 Y68.687 E30.18869
G1 X89.379 Y68.787 E30.19769
G1 X89.216 Y68.838 E30.20706
G1 X88.9 Y68.854 E30.22443
G1 X88.119 Y68.705 E30.26806
G1 X87.941 Y71.041 E30.39663
G1 X88.919 Y71.152 E30.45065
G1 X89.49 Y71.087 E30.48219
G1 X89.954 Y70.889 E30.50987
G1 X89.998 Y71.072 E30.5202
G1 X91.954 Y71.072 E30.62754
G1 X91.954 Y70.028 E30.68484
G1 X92.094 Y70.265 E30.69994
G1 X92.495 Y70.66 E30.73083
G1 X92.977 Y70.939 E30.7614
G1 X93.518 Y71.101 E30.79239
G1 X94.129 Y71.152 E30.82604
G1 X94.735 Y71.09 E30.85947
G1 X95.298 Y70.905 E30.89199
G1 X95.798 Y70.593 E30.92433
G1 X96.192 Y70.173 E30.95594
G1 X96.303 Y69.978 E30.96825
G1 X98.193 Y69.978 E31.07197
G1 X98.193 Y70.215 E31.08498
G1 X96.162 Y70.215 E31.1526
G1 X96.162 Y72.384 E31.27163
G1 X100.478 Y72.384 E31.50849
G1 X100.478 Y73.289 E31.55815
G1 X100.389 Y73.586 E31.57517
G1 X100.16 Y73.754 E31.59076
G1 X99.982 Y73.782 E31.60064
G1 X71.052 Y73.782 E33.1883
G0 F3600 X76.765 Y72.384
G1 F3000 X79.101 Y72.384 E33.3165
G1 X79.943 Y70.124 E33.44885
G1 X80.33 Y69.085 E33.5097
G1 X80.33 Y70.194 E33.54062
G1 X80.33 Y71.072 E33.58881
G1 X86.936 Y71.072 E33.95134
G1 X86.936 Y68.997 E34.06521
G1 X86.045 Y68.997 E34.11411
G1 X86.045 Y65.606 E34.30021
G1 X83.681 Y65.606 E34.42994
G1 X83.681 Y66.324 E34.46934
G1 X83.681 Y66.729 E34.49157
G1 X83.681 Y67.351 E34.52571
G1 X83.681 Y68.997 E34.61604
G1 X83.592 Y68.997 E34.62092
G1 X83.592 Y67.351 E34.64102
G1 X83.518 Y66.729 E34.65196
G1 X83.355 Y66.324 E34.6671
G1 X83.096 Y65.99 E34.69029
G1 X82.762 Y65.745 E34.71302
G1 X82.224 Y65.559 E34.74426
G1 X81.713 Y65.527 E34.77236
G1 X81.233 Y65.606 E34.79906
G1 X79.29 Y65.606 E34.90569
G1 X78.516 Y67.682 E35.02728
G1 X78.246 Y68.409 E35.05516
G1 X77.841 Y69.498 E35.09676
G1 X76.765 Y72.384 E35.2658
G0 F3600 X78.984 Y72.216
G0 X80.502 Y69.169
G0 X81.228 Y68.997
G1 F3000 X80.363 Y68.997 E35.31327
G1 X80.757 Y67.939 E35.37522
G1 X81.228 Y67.729 E35.40352
G1 X81.228 Y68.997 E35.47311
G0 F3600 X80.502 Y69.169
G0 X80.502 Y70.9
G0 X86.764 Y70.9
G0 X88.395 Y65.604
G1 F3000 X88.983 Y65.656 E35.50551
G1 X89.572 Y65.604 E35.53796
G1 X90.143 Y65.451 E35.54554
G1 X90.677 Y65.202 E35.56851
G1 X91.161 Y64.864 E35.6009
G1 X91.578 Y64.445 E35.63335
G1 X91.918 Y63.963 E35.66572
G1 X92.167 Y63.427 E35.69815
G1 X92.32 Y62.857 E35.73054
G1 X92.372 Y62.268 E35.76299
G1 X92.32 Y61.679 E35.79544
G1 X92.167 Y61.108 E35.82788
G1 X91.918 Y60.574 E35.86021
G1 X91.579 Y60.09 E35.89264
G1 X91.161 Y59.672 E35.92508
G1 X90.677 Y59.333 E35.95751
G1 X90.143 Y59.084 E35.98985
G1 X89.572 Y58.931 E36.02229
G1 X88.983 Y58.879 E36.05474
G1 X88.395 Y58.931 E36.08713
G1 X87.825 Y59.084 E36.11952
G1 X87.289 Y59.333 E36.15196
G1 X86.806 Y59.672 E36.18434
G1 X86.387 Y60.09 E36.21682
G1 X86.049 Y60.574 E36.24922
G1 X85.8 Y61.108 E36.28155
G1 X85.647 Y61.679 E36.314
G1 X85.595 Y62.268 E36.34644
G1 X85.647 Y62.857 E36.37889
G1 X85.8 Y63.428 E36.41134
G1 X86.049 Y63.962 E36.44367
G1 X86.387 Y64.445 E36.47602
G1 X86.806 Y64.864 E36.50854
G1 X87.289 Y65.202 E36.54089
G1 X87.825 Y65.451 E36.57333
G1 X88.395 Y65.604 E36.60572
G0 F3600 X87.369 Y65.061
G0 X86.51 Y64.34
G0 X85.95 Y63.369
G0 X84.585 Y56.993
G0 X83.585 Y55.236
G1 F3000 X82.879 Y55.769 E36.65426
G1 X82.529 Y55.963 E36.67622
G1 X82.281 Y56.02 E36.69019
G1 X82.159 Y56.005 E36.69694
G1 X82.176 Y55.815 E36.70371
G1 X82.292 Y55.578 E36.71819
G1 X82.825 Y54.953 E36.76327
G1 X83.153 Y54.606 E36.78948
G1 X83.787 Y53.965 E36.83895
G1 X84.105 Y53.644 E36.86375
G1 X84.034 Y54.209 E36.87997
G1 X84.017 Y54.75 E36.90967
G1 X84.059 Y55.544 E36.95331
G1 X84.12 Y55.867 E36.97134
G1 X83.585 Y55.236 E37.01674
G0 F3600 X84.905 Y57.352
G0 X85.364 Y57.75
G0 X85.931 Y57.986
G0 X86.57 Y58.062
G0 X87.228 Y57.986
G0 X88.005 Y57.605
G0 X88.704 Y56.541
G0 X88.897 Y55.159
G0 X89.374 Y54.101
G1 F3000 X89.1 Y54.446 E37.04092
G1 X89.074 Y53.955 E37.05392
G1 X88.999 Y53.548 E37.07663
G1 X89.921 Y53.548 E37.12723
G1 X89.374 Y54.101 E37.16695
G0 F3600 X88.74 Y55.247
G0 X88.704 Y56.541
G0 X88.395 Y57.18
G0 X87.638 Y57.839
G0 X86.856 Y58.028
G0 X75.804 Y58.134
G1 F3000 X77.808 Y58.134 E37.27693
G1 X79.532 Y55.597 E37.44526
G1 X79.871 Y55.098 E37.47837
G1 X80.22 Y54.584 E37.51246
G1 X80.536 Y54.118 E37.54336
G1 X80.536 Y53.548 E37.57464
G1 X81.193 Y53.548 E37.6107
G1 X80.646 Y54.101 E37.6352
G1 X80.248 Y54.602 E37.6437
G1 X79.951 Y55.152 E37.64937
G1 X79.794 Y55.774 E37.66826
G1 X79.797 Y56.43 E37.70426
G1 X79.933 Y56.906 E37.73142
G1 X80.176 Y57.331 E37.75829
G1 X80.533 Y57.698 E37.78639
G1 X81.099 Y58.028 E37.82234
G1 X81.602 Y58.17 E37.85103
G1 X82.318 Y58.21 E37.89038
G1 X82.925 Y58.141 E37.92391
G1 X83.548 Y57.933 E37.95995
G1 X84.133 Y57.586 E37.99728
G1 X84.614 Y57.194 E38.03133
G1 X84.781 Y57.457 E38.04843
G1 X85.279 Y57.888 E38.08457
G1 X85.889 Y58.143 E38.12086
G1 X86.568 Y58.223 E38.15838
G1 X87.268 Y58.143 E38.19704
G1 X87.706 Y57.986 E38.22258
G1 X88.109 Y57.729 E38.24881
G1 X88.53 Y57.272 E38.28291
G1 X88.691 Y56.959 E38.30223
G1 X88.904 Y57.331 E38.31581
G1 X89.261 Y57.698 E38.3439
G1 X89.827 Y58.028 E38.37986
G1 X90.33 Y58.17 E38.40854
G1 X91.047 Y58.21 E38.44795
G1 X91.653 Y58.141 E38.48142
G1 X92.276 Y57.933 E38.51747
G1 X92.861 Y57.586 E38.5548
G1 X93.714 Y56.891 E38.61518
G1 X92.313 Y55.236 E38.73418
G1 X91.607 Y55.769 E38.78272
G1 X91.262 Y55.961 E38.80439
G1 X91.008 Y56.02 E38.8187
G1 X90.887 Y56.004 E38.8254
G1 X90.904 Y55.815 E38.83211
G1 X91.02 Y55.578 E38.84659
G1 X91.553 Y54.953 E38.89167
G1 X91.881 Y54.606 E38.91787
G1 X93.448 Y53.022 E39.04015
G1 X93.448 Y51.356 E39.13158
G1 X90.63 Y51.356 E39.28623
G1 X90.065 Y51.356 E39.30919
G1 X89.496 Y51.356 E39.33215
G1 X88.35 Y51.356 E39.39504
G1 X88.35 Y52.035 E39.4323
G1 X87.867 Y51.613 E39.451
G1 X87.255 Y51.355 E39.48745
G1 X87.152 Y51.343 E39.49314
G1 X87.47 Y50.965 E39.52025
G1 X87.667 Y50.424 E39.55185
G1 X87.667 Y49.847 E39.58351
G1 X87.469 Y49.306 E39.61513
G1 X87.096 Y48.863 E39.64691
G1 X86.595 Y48.577 E39.67857
G1 X86.028 Y48.479 E39.6971
G1 X85.464 Y48.581 E39.71574
G1 X84.97 Y48.866 E39.74703
G1 X84.6 Y49.307 E39.77863
G1 X84.403 Y49.847 E39.81017
G1 X84.403 Y50.424 E39.84184
G1 X84.601 Y50.966 E39.8735
G1 X84.974 Y51.408 E39.90524
G1 X85.3 Y51.594 E39.92584
G1 X85.026 Y51.771 E39.93481
G1 X84.72 Y52.104 E39.95962
G1 X84.72 Y51.356 E39.99768
G1 X79.622 Y51.356 E40.27746
G1 X79.622 Y52.512 E40.3409
G1 X78.153 Y52.512 E40.42151
G1 X78.153 Y51.356 E40.48495
G1 X75.804 Y51.356 E40.61386
G1 X75.804 Y52.512 E40.67731
G1 X75.133 Y52.512 E40.71413
G1 X75.133 Y54.626 E40.83014
G1 X75.804 Y54.626 E40.86697
G1 X75.804 Y58.134 E41.05948
G0 F3600 X73.878 Y51.694
G1 F3000 X74.445 Y51.793 E41.09107
G1 X75.006 Y51.691 E41.12236
G1 X75.504 Y51.406 E41.15385
G1 X75.874 Y50.965 E41.18544
