;FLAVOR:Marlin
;TIME:2224
;Filament used: 1.66739m
;Layer height: 0.15
;MINX:71.623
;MINY:68.973
;MINZ:0.3
;MAXX:113.371
;MAXY:126.015
;MAXZ:3.3
;TARGET_MACHINE.NAME:Unknown
;Generated with Cura_SteamEngine 5.5.0
M140 S50
M105
M190 S50
M104 S195
M105
M109 S195
M82 ;absolute extrusion mode
G28 ;Home
M111 S7 ;debug output 
G1 Z15.0 F6000 ;Move the platform down 15mm
;Prime the extruder
G92 E0
G1 F200 E3
G92 E0
G92 E0
G92 E0
G1 F1500 E-6.5
;LAYER_COUNT:21
;LAYER:0
M107
G0 F3600 X75.21 Y73.337 Z0.3
;TYPE:SKIRT
G1 F1500 E0
G1 F3000 X76.093 Y72.477 E0.06764
G1 X76.578 Y72.055 E0.10293
G1 X77.715 Y71.199 E0.18103
G1 X78.904 Y70.516 E0.25628
G1 X79.421 Y70.257 E0.28801
G1 X80.793 Y69.688 E0.36953
G1 X82.037 Y69.345 E0.44034
G1 X82.646 Y69.211 E0.47456
G1 X83.732 Y69.052 E0.5348
G1 X84.375 Y68.996 E0.57022
G1 X85.586 Y68.973 E0.63669
G1 X88.26 Y69.118 E0.78365
G1 X91.029 Y69.196 E0.93567
G1 X93.724 Y69.196 E1.08357
G1 X96.467 Y69.118 E1.23417
G1 X97.573 Y69.051 E1.29498
G1 X97.721 Y69.054 E1.3031
G1 X98.808 Y68.997 E1.36284
G1 X99.982 Y68.975 E1.42727
G1 X100.738 Y68.99 E1.46877
G1 X102.244 Y69.181 E1.55208
G1 X103.495 Y69.482 E1.6227
G1 X104.201 Y69.694 E1.66315
G1 X105.315 Y70.121 E1.72862
G1 X106.883 Y70.944 E1.82581
G1 X107.995 Y71.723 E1.90032
G1 X108.489 Y72.11 E1.93475
G1 X109.519 Y73.043 E2.01102
G1 X110.408 Y74.072 E2.08565
G1 X110.795 Y74.577 E2.12057
G1 X111.64 Y75.853 E2.20455
G1 X112.049 Y76.694 E2.25588
G1 X112.415 Y77.495 E2.30421
G1 X112.641 Y78.135 E2.34145
G1 X112.913 Y79.01 E2.39174
G1 X113.153 Y80.133 E2.45476
G1 X113.274 Y80.892 E2.49694
G1 X113.328 Y81.562 E2.53383
G1 X113.37 Y82.473 E2.58388
G1 X113.353 Y83.217 E2.62472
G1 X113.273 Y84.234 E2.6807
G1 X113.15 Y85.177 E2.73289
G1 X112.841 Y87.879 E2.88214
G1 X112.607 Y90.589 E3.03142
G1 X112.452 Y93.313 E3.18115
G1 X112.371 Y96.055 E3.33169
G1 X112.369 Y98.775 E3.48097
G1 X112.444 Y101.506 E3.6309
G1 X112.595 Y104.208 E3.77941
G1 X112.824 Y106.947 E3.93025
G1 X113.129 Y109.646 E4.07931
G1 X113.247 Y110.527 E4.12809
G1 X113.348 Y111.706 E4.19303
G1 X113.371 Y112.482 E4.23564
G1 X113.309 Y113.881 E4.31249
G1 X113.014 Y115.608 E4.40864
G1 X112.535 Y117.181 E4.49888
G1 X111.812 Y118.793 E4.59583
G1 X111.138 Y119.902 E4.66705
G1 X110.766 Y120.441 E4.70299
G1 X110.077 Y121.307 E4.76373
G1 X109.672 Y121.759 E4.79703
G1 X108.915 Y122.498 E4.85509
G1 X108.435 Y122.915 E4.88998
G1 X107.326 Y123.755 E4.96633
G1 X105.838 Y124.612 E5.06057
G1 X104.207 Y125.292 E5.15754
G1 X102.963 Y125.635 E5.22836
G1 X102.354 Y125.769 E5.26258
G1 X101.268 Y125.928 E5.32282
G1 X100.624 Y125.984 E5.35829
G1 X99.528 Y126.003 E5.41845
G1 X98.575 Y125.975 E5.47077
G1 X96.678 Y125.867 E5.57505
G1 X93.928 Y125.788 E5.72603
G1 X91.233 Y125.788 E5.87393
G1 X88.492 Y125.865 E6.02441
G1 X87.693 Y125.913 E6.06834
G1 X87.577 Y125.911 E6.0747
G1 X85.338 Y126.015 E6.19771
G1 X84.631 Y126.004 E6.23651
G1 X83.591 Y125.922 E6.29377
G1 X82.769 Y125.799 E6.33938
G1 X82.112 Y125.663 E6.3762
G1 X81.234 Y125.426 E6.42611
G1 X80.335 Y125.119 E6.47824
G1 X79.536 Y124.783 E6.52581
G1 X78.803 Y124.42 E6.5707
G1 X78.201 Y124.079 E6.60867
G1 X77.473 Y123.608 E6.65625
G1 X76.838 Y123.142 E6.69948
G1 X76.032 Y122.466 E6.75721
G1 X75.353 Y121.795 E6.8096
G1 X74.843 Y121.225 E6.85157
G1 X74.413 Y120.691 E6.8892
G1 X73.909 Y119.987 E6.93671
G1 X73.463 Y119.273 E6.98291
G1 X73.084 Y118.577 E7.0264
G1 X72.671 Y117.689 E7.08015
G1 X72.314 Y116.728 E7.13641
G1 X72.1 Y116.021 E7.17695
G1 X71.875 Y115.064 E7.2309
G1 X71.742 Y114.249 E7.27622
G1 X71.657 Y113.417 E7.32211
G1 X71.623 Y112.585 E7.36781
G1 X71.637 Y111.705 E7.41611
G1 X71.682 Y111.015 E7.45406
G1 X71.866 Y109.621 E7.53122
G1 X72.172 Y106.9 E7.68149
G1 X72.403 Y104.163 E7.83223
G1 X72.552 Y101.46 E7.98079
G1 X72.627 Y98.718 E8.13133
G1 X72.625 Y95.994 E8.28082
G1 X72.544 Y93.27 E8.43038
G1 X72.386 Y90.543 E8.58028
G1 X72.155 Y87.833 E8.72955
G1 X71.847 Y85.153 E8.87759
G1 X71.743 Y84.349 E8.92208
G1 X71.647 Y83.159 E8.9876
G1 X71.629 Y82.491 E9.02427
G1 X71.674 Y81.463 E9.08074
G1 X71.74 Y80.786 E9.11807
G1 X71.997 Y79.296 E9.20105
G1 X72.275 Y78.395 E9.25279
G1 X72.522 Y77.669 E9.29488
G1 X72.992 Y76.613 E9.35831
G1 X73.336 Y75.941 E9.39974
G1 X74.118 Y74.666 E9.48183
G1 X74.613 Y74.041 E9.52558
G1 X75.21 Y73.337 E9.57624
G0 F3600 X75.489 Y73.624
G1 F3000 X76.372 Y72.764 E9.64388
G1 X76.819 Y72.374 E9.67644
G1 X77.914 Y71.546 E9.75177
G1 X79.083 Y70.874 E9.82577
G1 X79.6 Y70.615 E9.85751
G1 X80.9 Y70.074 E9.93478
G1 X82.123 Y69.736 E10.00441
G1 X82.732 Y69.602 E10.03864
G1 X83.79 Y69.448 E10.09731
G1 X84.383 Y69.396 E10.12998
G1 X85.594 Y69.373 E10.19645
G1 X88.249 Y69.518 E10.34237
G1 X91.018 Y69.596 E10.49439
G1 X93.735 Y69.596 E10.6435
G1 X96.478 Y69.518 E10.79409
G1 X97.565 Y69.451 E10.85386
G1 X97.72 Y69.454 E10.86237
G1 X98.816 Y69.397 E10.9226
G1 X99.975 Y69.375 E10.98621
G1 X100.688 Y69.387 E11.02535
G1 X102.151 Y69.57 E11.10626
G1 X103.38 Y69.865 E11.17562
G1 X104.058 Y70.068 E11.21446
G1 X105.172 Y70.495 E11.27994
G1 X106.654 Y71.272 E11.37177
G1 X107.749 Y72.038 E11.4451
G1 X108.22 Y72.406 E11.47791
G1 X109.25 Y73.339 E11.55417
G1 X110.091 Y74.316 E11.62492
G1 X110.462 Y74.799 E11.65834
G1 X111.28 Y76.028 E11.73936
G1 X111.685 Y76.86 E11.79015
G1 X112.051 Y77.661 E11.83848
G1 X112.259 Y78.254 E11.87296
G1 X112.531 Y79.129 E11.92325
G1 X112.758 Y80.197 E11.98317
G1 X112.875 Y80.924 E12.02358
G1 X112.928 Y81.58 E12.0597
G1 X112.97 Y82.491 E12.10975
G1 X112.954 Y83.186 E12.1479
G1 X112.876 Y84.183 E12.20278
G1 X112.754 Y85.126 E12.25496
G1 X112.442 Y87.845 E12.40516
G1 X112.209 Y90.555 E12.55443
G1 X112.052 Y93.301 E12.70537
G1 X111.971 Y96.043 E12.85592
G1 X111.969 Y98.775 E13.00585
G1 X112.044 Y101.517 E13.15638
G1 X112.196 Y104.241 E13.30611
G1 X112.426 Y106.98 E13.45695
G1 X112.733 Y109.699 E13.60711
G1 X112.848 Y110.561 E13.65484
G1 X112.948 Y111.718 E13.71857
G1 X112.971 Y112.464 E13.75953
G1 X112.909 Y113.863 E13.83638
G1 X112.631 Y115.491 E13.92702
G1 X112.152 Y117.064 E14.01726
G1 X111.47 Y118.585 E14.10873
G1 X110.796 Y119.694 E14.17995
G1 X110.453 Y120.192 E14.21314
G1 X109.779 Y121.04 E14.27259
G1 X109.392 Y121.473 E14.30446
G1 X108.652 Y122.196 E14.36123
G1 X108.193 Y122.596 E14.39465
G1 X107.084 Y123.436 E14.47099
G1 X105.639 Y124.265 E14.56242
G1 X104.101 Y124.906 E14.65386
G1 X102.877 Y125.244 E14.72355
G1 X102.268 Y125.378 E14.75777
G1 X101.21 Y125.532 E14.81644
G1 X100.617 Y125.584 E14.84911
G1 X99.539 Y125.603 E14.90828
G1 X98.598 Y125.576 E14.95994
G1 X96.689 Y125.467 E15.06488
G1 X93.939 Y125.388 E15.21586
G1 X91.222 Y125.388 E15.36496
G1 X88.481 Y125.465 E15.51545
G1 X87.699 Y125.513 E15.55844
G1 X87.564 Y125.511 E15.56585
G1 X85.319 Y125.615 E15.68919
G1 X84.662 Y125.605 E15.72525
G1 X83.65 Y125.526 E15.78095
G1 X82.85 Y125.407 E15.82534
G1 X82.193 Y125.271 E15.86216
G1 X81.363 Y125.047 E15.90934
G1 X80.464 Y124.74 E15.96147
G1 X79.691 Y124.414 E16.00751
G1 X79 Y124.072 E16.04983
G1 X78.418 Y123.743 E16.08652
G1 X77.71 Y123.286 E16.13276
G1 X77.075 Y122.82 E16.17599
G1 X76.313 Y122.181 E16.23056
G1 X75.651 Y121.528 E16.28159
G1 X75.154 Y120.974 E16.32244
G1 X74.738 Y120.458 E16.35881
G1 X74.248 Y119.775 E16.40494
G1 X73.814 Y119.081 E16.44986
G1 X73.447 Y118.408 E16.49193
G1 X73.034 Y117.52 E16.54568
G1 X72.697 Y116.612 E16.59883
G1 X72.483 Y115.905 E16.63937
G1 X72.27 Y114.999 E16.69044
G1 X72.14 Y114.208 E16.73443
G1 X72.057 Y113.4 E16.77901
G1 X72.023 Y112.591 E16.82345
G1 X72.036 Y111.731 E16.87065
G1 X72.079 Y111.067 E16.90716
G1 X72.262 Y109.673 E16.98432
G1 X72.571 Y106.933 E17.13564
G1 X72.801 Y104.196 E17.28638
G1 X72.952 Y101.471 E17.43615
G1 X73.027 Y98.729 E17.58669
G1 X73.025 Y95.994 E17.73678
G1 X72.944 Y93.258 E17.887
G1 X72.785 Y90.509 E18.03811
G1 X72.553 Y87.799 E18.18738
G1 X72.244 Y85.101 E18.33641
G1 X72.142 Y84.317 E18.3798
G1 X72.047 Y83.148 E18.44417
G1 X72.029 Y82.508 E18.4793
G1 X72.074 Y81.48 E18.53577
G1 X72.138 Y80.825 E18.57189
G1 X72.379 Y79.414 E18.65045
G1 X72.654 Y78.524 E18.70157
G1 X72.901 Y77.798 E18.74365
G1 X73.348 Y76.795 E18.80391
G1 X73.677 Y76.15 E18.84365
G1 X74.432 Y74.914 E18.92313
G1 X74.919 Y74.299 E18.96619
G1 X75.489 Y73.624 E19.01467
G1 F1500 E12.51467
;MESH:BoneDante.stl
G0 F3600 X75.092 Y79.223
G0 X78.324 Y89.672
;TYPE:WALL-OUTER
G1 F1500 E19.01467
G1 F3529.4 X77.982 Y89.276 E19.03908
G1 F3296.7 X77.466 Y88.511 E19.08516
G1 F3183 X77.003 Y87.875 E19.12585
G1 F2771.4 X76.763 Y87.365 E19.15933
G1 F2434.1 X76.68 Y87.256 E19.1686
G1 F2500 X76.287 Y86.447 E19.22783
G1 F2334.6 X76.215 Y86.196 E19.24625
G1 F2321.1 X76.029 Y85.805 E19.27696
G1 F2390.4 X75.971 Y85.54 E19.29564
G1 F2404.8 X75.901 Y85.414 E19.30551
G1 F2678.6 X75.683 Y84.728 E19.34975
G1 F2696.6 X75.614 Y84.233 E19.38027
G1 F2803.7 X75.539 Y84.071 E19.39075
G1 F3000 X75.508 Y83.828 E19.40419
G1 F3191.5 X75.437 Y83.648 E19.41417
G1 F3529.4 X75.411 Y83.143 E19.43776
G1 X75.349 Y82.987 E19.44559
G1 X75.335 Y82.492 E19.46869
G1 X75.276 Y82.26 E19.47986
G1 F1500 E12.97986
G0 F3600 X76.081 Y81.956
G0 X76.197 Y80.886
G0 X77.255 Y80.649
G0 X82.514 Y74.596
G0 X83.279 Y74.424
G0 X84.494 Y79.363
G0 X84.494 Y79.702
;TYPE:WALL-INNER
G1 F1500 E19.47986
G1 F6000 X84.64 Y79.666 E19.48811
G1 X84.993 Y79.692 E19.50754
G1 X85.2 Y79.808 E19.52056
G1 X85.55 Y80.191 E19.54903
G1 X85.765 Y80.27 E19.5616
G1 X85.901 Y80.379 E19.57117
G1 X86.061 Y80.328 E19.58038
G1 X86.467 Y80.329 E19.60266
G1 X86.537 Y80.365 E19.60698
G1 X86.585 Y80.301 E19.61137
G1 X86.835 Y80.197 E19.62623
G1 X87.427 Y80.187 E19.65873
G1 X88.196 Y80.19 E19.70093
G1 X89.31 Y80.159 E19.76209
G1 X89.59 Y80.236 E19.77803
G1 F5955.3 X90.005 Y80.182 E19.80116
G1 F4958.7 X90.333 Y80.089 E19.8238
G1 F4371.6 X91.154 Y80.119 E19.88568
G1 F4477.6 X91.086 Y79.704 E19.91661
G1 X90.775 Y79.57 E19.94151
G1 F4371.6 X90.441 Y79.544 E19.96675
G1 F4752.5 X90.264 Y79.373 E19.9838
G1 F5673.8 X89.998 Y79.201 E20.00218
G1 F6000 X89.709 Y78.838 E20.02764
G1 X89.592 Y78.488 E20.0479
G1 X89.587 Y77.881 E20.08121
G1 X89.493 Y77.792 E20.08831
G1 X89.259 Y77.683 E20.10248
G1 X88.787 Y77.312 E20.13543
G1 X88.657 Y77.165 E20.1462
G1 X88.579 Y76.965 E20.15798
G1 X88.198 Y76.722 E20.18278
G1 X87.978 Y76.453 E20.20185
G1 X87.823 Y76.365 E20.21163
G1 X87.244 Y75.811 E20.25561
G1 X87.213 Y75.767 E20.25856
G1 X86.465 Y75.053 E20.31531
G1 X86.37 Y74.897 E20.32533
G1 X86.328 Y74.669 E20.33806
G1 X86.103 Y74.609 E20.35084
G1 X85.856 Y74.414 E20.36811
G1 X85.601 Y74.387 E20.38218
G1 X85.383 Y74.306 E20.39494
G1 X84.952 Y73.88 E20.4282
G1 X84.868 Y73.755 E20.43646
G1 X84.523 Y74.223 E20.46837
G1 X84.402 Y74.317 E20.47678
G1 X84.284 Y74.491 E20.48832
G1 X84.081 Y74.629 E20.50179
G1 F5882.4 X83.741 Y74.697 E20.5212
G1 X83.812 Y75.029 E20.5402
G1 F6000 X83.752 Y75.392 E20.56039
G1 X83.462 Y76.065 E20.60061
G1 X83.371 Y76.186 E20.60892
G1 X83.276 Y76.235 E20.61479
G1 X83.258 Y76.535 E20.63128
G1 X83.031 Y77.019 E20.66062
G1 X83 Y77.378 E20.68039
G1 X82.931 Y77.598 E20.69304
G1 X82.757 Y77.846 E20.70967
G1 X82.755 Y78.574 E20.74962
G1 X82.629 Y78.846 E20.76607
G1 X82.621 Y81.011 E20.88489
G1 F5417.6 X82.804 Y81.404 E20.91124
G1 F4918 X82.804 Y81.671 E20.92911
G1 F4888 X82.936 Y82.023 E20.95444
G1 F4780.9 X82.951 Y82.169 E20.96455
G1 F4419.9 X83.123 Y82.507 E20.9928
G1 F4173.9 X83.125 Y82.654 E21.0044
G1 F4159.4 X83.376 Y82.828 E21.02857
G1 F4195.8 X83.545 Y83.072 E21.05187
G1 F4255.3 X83.754 Y83.074 E21.06804
G1 X84.024 Y82.934 E21.09157
G1 X84.015 Y82.705 E21.10931
G1 F4195.8 X83.812 Y82.422 E21.13664
G1 F4159.4 X83.612 Y82.277 E21.1562
G1 F4419.9 X83.408 Y81.923 E21.18663
G1 F4800 X83.292 Y81.574 E21.21186
G1 F4918 X83.292 Y81.414 E21.22258
G1 F5417.6 X83.488 Y81.04 E21.24824
G1 F6000 X83.681 Y80.896 E21.26145
G1 X84.012 Y80.84 E21.27988
G1 X84.103 Y80.535 E21.29734
G1 X84.11 Y80.245 E21.31326
G1 X84.296 Y79.827 E21.33837
G1 X84.494 Y79.702 E21.35122
G1 F1500 E14.85122
G0 F3600 X84.494 Y79.363
G0 X83.676 Y74.905
G0 X83.279 Y74.424
G0 X82.514 Y74.596
G0 X78.016 Y84.617
G0 X77.222 Y85.303
G0 X77.649 Y85.246
;TYPE:WALL-OUTER
G1 F1500 E21.35122
G1 F3529.4 X77.655 Y85.245 E21.35151
G1 X77.649 Y85.246 E21.35179
G0 F3600 X77.163 Y85.38
G0 X78.097 Y87.729
G0 X78.241 Y87.514
G1 F2116.4 X78.035 Y86.953 E21.39828
G1 F2580.6 X78.298 Y86.826 E21.41691
G1 X77.986 Y86.844 E21.43685
G1 F2076.1 X77.848 Y86.656 E21.45534
G1 F2166.1 X77.794 Y86.48 E21.46934
G1 F2154.4 X77.655 Y86.284 E21.4877
G1 F2166.1 X77.676 Y86.121 E21.50019
G1 F2733.5 X77.904 Y86.036 E21.51485
G1 X77.652 Y86.058 E21.53008
G1 F2154.4 X77.575 Y86.016 E21.53679
G1 F2087 X77.398 Y85.639 E21.56964
G1 F2058.3 X77.366 Y85.313 E21.59584
G1 F2061.9 X77.14 Y84.994 E21.62706
G1 F2065.4 X77.097 Y84.631 E21.6562
G1 F2033.9 X77.023 Y84.545 E21.66538
G1 F2087 X76.875 Y84.154 E21.69836
G1 F2150.5 X76.882 Y83.862 E21.72072
G1 F2154.4 X76.774 Y83.736 E21.7334
G1 F2079.7 X76.724 Y83.216 E21.77476
G1 F2013.4 X76.629 Y83.102 E21.78689
G1 F2033.9 X76.528 Y82.575 E21.83033
G1 F2054.8 X76.535 Y82.486 E21.83748
G1 X76.487 Y82.419 E21.84409
G1 F2044.3 X76.469 Y81.79 E21.89476
G1 F2037.4 X76.403 Y81.716 E21.90278
G1 F2105.3 X76.357 Y81.538 E21.91715
G1 F2177.9 X76.34 Y80.893 E21.96593
G1 F2173.9 X76.366 Y80.868 E21.96866
G1 X76.292 Y80.775 E21.97766
G1 F2376.2 X76.265 Y80.164 E22.02004
G1 F2771.4 X76.308 Y79.6 E22.05364
G1 F2955.7 X76.381 Y79.482 E22.06137
G1 F2963 X76.323 Y79.398 E22.06704
G1 F2385.7 X76.221 Y78.9 E22.10212
G1 F2272.7 X75.96 Y79.316 E22.1377
G1 F2500 X75.761 Y80.135 E22.1932
G1 F2366.9 X75.765 Y80.709 E22.23313
G1 F2264.2 X75.789 Y80.932 E22.24944
G1 F2162.2 X75.796 Y81.561 E22.29734
G1 F2097.9 X75.916 Y82.074 E22.33868
G1 F2047.8 X75.949 Y82.726 E22.39117
G1 F2109 X76.041 Y82.912 E22.40737
G1 F2090.6 X76.068 Y83.359 E22.44263
G1 F2013.4 X76.163 Y83.473 E22.45477
G1 F2072.5 X76.186 Y83.74 E22.47606
G1 F2146.7 X76.299 Y83.922 E22.49249
G1 F2150.5 X76.319 Y84.28 E22.51994
G1 F2142.9 X76.377 Y84.348 E22.5268
G1 F2087 X76.486 Y84.806 E22.56394
G1 F2033.9 X76.547 Y84.894 E22.57261
G1 F2065.4 X76.582 Y85.185 E22.59597
G1 F2061.9 X76.807 Y85.557 E22.63069
G1 F2058.3 X76.836 Y85.831 E22.65273
G1 F2087 X77.077 Y86.274 E22.69251
G1 F2094.2 X77.112 Y86.478 E22.70878
G1 F2154.4 X77.3 Y86.727 E22.73263
G1 F2135.2 X77.364 Y86.997 E22.75402
G1 F2051.3 X77.475 Y87.137 E22.76836
G1 F2044.3 X77.498 Y87.264 E22.77876
G1 F2131.4 X77.754 Y87.768 E22.82242
G1 F2146.7 X77.985 Y88.041 E22.84985
G1 F2097.9 X78.012 Y88.176 E22.86065
G1 F2094.2 X78.257 Y88.493 E22.89215
G1 F2087 X78.416 Y88.861 E22.92377
G1 F2097.9 X78.997 Y89.631 E22.99947
G1 F2105.3 X79.004 Y89.673 E23.0028
G1 F2123.9 X79.398 Y90.104 E23.04807
G1 F2112.7 X79.65 Y90.456 E23.0818
G1 F2131.4 X79.984 Y90.715 E23.11445
G1 F2400 X80.539 Y91.077 E23.15991
G1 F2547.8 X81.04 Y91.327 E23.19609
G1 F2230.5 X81.308 Y91.389 E23.21639
G1 F2321.1 X80.92 Y90.925 E23.25929
G1 F2666.7 X80.837 Y90.728 E23.27249
G1 F2444 X80.407 Y90.387 E23.30946
G1 F2185.8 X80.296 Y90.238 E23.32346
G1 F2105.3 X80.061 Y90.05 E23.34699
G1 F2097.9 X79.899 Y89.79 E23.37103
G1 F2135.2 X79.734 Y89.657 E23.38737
G1 F2109 X79.342 Y89.141 E23.43796
G1 F2058.3 X79.327 Y89.062 E23.44439
G1 F2101.6 X78.979 Y88.659 E23.48611
G1 X78.837 Y88.328 E23.51432
G1 F2083.3 X78.557 Y87.978 E23.54974
G1 F2097.9 X78.462 Y87.718 E23.57147
G1 F2146.7 X78.241 Y87.514 E23.59453
G0 F3600 X78.172 Y87.327
G1 F1500 E17.09453
G0 F3600 X77.974 Y87.445
G0 X78.81 Y86.576
G0 X84.484 Y83.797
G1 F1500 E23.59453
G1 F3468.2 X84.465 Y83.894 E23.59923
G1 X84.484 Y83.797 E23.60392
G0 F3600 X84.285 Y83.07
G0 X83.035 Y81.376
G0 X83.745 Y81.376
G1 F3000 X83.851 Y81.259 E23.61258
G1 F3015.1 X84.035 Y81.243 E23.62267
G1 F3183 X84.154 Y81.315 E23.62986
G1 F3389.8 X84.45 Y81.62 E23.6505
G1 F3418.8 X84.52 Y81.538 E23.65569
G1 X84.684 Y81.516 E23.66366
G1 X84.741 Y81.452 E23.66779
G1 F3389.8 X84.435 Y81.099 E23.69048
G1 F3183 X84.396 Y80.964 E23.69775
G1 F3015.1 X84.502 Y80.632 E23.71678
G1 F3000 X84.51 Y80.257 E23.73736
G1 X84.572 Y80.117 E23.74577
G1 X84.686 Y80.064 E23.75267
G1 X84.87 Y80.072 E23.76277
G1 X85.201 Y80.383 E23.7877
G1 X85.243 Y80.538 E23.79651
G1 X85.56 Y80.614 E23.8144
