;FLAVOR:Marlin
;TIME:1342
;Filament used: 0.808164m
;Layer height: 0.1
;MINX:64.9
;MINY:69.9
;MINZ:0.3
;MAXX:120.1
;MAXY:125.1
;MAXZ:3
;TARGET_MACHINE.NAME:Unknown
;Generated with Cura_SteamEngine 5.11.0
M140 S50
M105
M190 S50
M104 S195
M105
M109 S195
G28 ;Home
M111 S7 ;debug output
G1 Z15.0 F6000 ;Move the platform down 15mm
;Prime the extruder
G92 E0
G1 F200 E3
G92 E0
M82 ;absolute extrusion mode
G92 E0
G92 E0
G1 F1500 E-6.5
;LAYER_COUNT:28
;LAYER:0
M107
G0 F3600 X66.039 Y70.893 Z0.3
;TYPE:SKIRT
G1 F1500 E0
G1 F2400 X66.482 Y70.536 E0.03122
G1 X66.976 Y70.253 E0.06247
G1 X67.507 Y70.053 E0.09361
G1 X68.064 Y69.938 E0.12482
G1 X68.74 Y69.901 E0.16197
G1 X76.845 Y69.9 E0.60677
G1 X77.885 Y69.915 E0.66385
G1 X78.641 Y70.088 E0.70641
G1 X79.36 Y70.378 E0.74896
G1 X81.906 Y71.359 E0.89869
G1 X84.47 Y72.264 E1.04791
G1 X87.061 Y73.097 E1.19727
G1 X89.687 Y73.86 E1.34734
G1 X92.343 Y74.551 E1.49796
G1 X94.963 Y75.154 E1.6455
G1 X97.673 Y75.698 E1.79719
G1 X99.181 Y75.978 E1.88136
G1 X99.729 Y76.13 E1.91257
G1 X100.245 Y76.367 E1.94373
G1 X100.719 Y76.683 E1.97499
G1 X101.136 Y77.068 E2.00614
G1 X101.488 Y77.515 E2.03736
G1 X101.809 Y78.08 E2.07303
G1 X102.844 Y81.148 E2.25072
G1 X103.794 Y83.713 E2.40083
G1 X104.808 Y86.23 E2.54975
G1 X105.91 Y88.755 E2.70094
G1 X107.061 Y91.206 E2.84954
G1 X108.284 Y93.627 E2.99839
G1 X109.599 Y96.055 E3.14993
G1 X110.954 Y98.397 E3.29842
G1 X112.38 Y100.711 E3.44758
G1 X113.895 Y103.018 E3.59905
G1 X115.438 Y105.23 E3.74706
G1 X117.068 Y107.43 E3.89732
G1 X118.736 Y109.554 E4.04553
G1 X119.388 Y110.37 E4.10285
G1 X119.687 Y110.853 E4.13403
G1 X119.908 Y111.378 E4.16529
G1 X120.032 Y111.868 E4.19303
G1 X120.1 Y112.527 E4.22938
G1 X120.1 Y120.814 E4.68417
G1 X120.09 Y121.541 E4.72407
G1 X120.03 Y122.138 E4.757
G1 X119.884 Y122.687 E4.78817
G1 X119.653 Y123.207 E4.8194
G1 X119.344 Y123.683 E4.85054
G1 X118.962 Y124.107 E4.88186
G1 X118.571 Y124.427 E4.90959
G1 X118.028 Y124.745 E4.94412
G1 X117.557 Y124.929 E4.97187
G1 X116.949 Y125.061 E5.00602
G1 X116.505 Y125.098 E5.03047
G1 X108.155 Y125.1 E5.48871
G1 X107.095 Y125.084 E5.54689
G1 X106.415 Y124.92 E5.58528
G1 X105.826 Y124.674 E5.62031
G1 X105.312 Y124.344 E5.65383
G1 X103.426 Y122.835 E5.78638
G1 X101.268 Y121.194 E5.93516
G1 X99.059 Y119.61 E6.08434
G1 X96.803 Y118.086 E6.23375
G1 X94.471 Y116.606 E6.38532
G1 X92.171 Y115.236 E6.53224
G1 X89.755 Y113.888 E6.68407
G1 X87.363 Y112.641 E6.83211
G1 X84.876 Y111.431 E6.98389
G1 X82.423 Y110.323 E7.1316
G1 X79.883 Y109.262 E7.28267
G1 X77.347 Y108.286 E7.43179
G1 X74.773 Y107.377 E7.5816
G1 X73.33 Y106.892 E7.66515
G1 X72.809 Y106.664 E7.69636
G1 X72.381 Y106.395 E7.7241
G1 X71.906 Y105.977 E7.75882
G1 X71.548 Y105.537 E7.78995
G1 X71.262 Y105.044 E7.82123
G1 X71.024 Y104.438 E7.85696
G1 X70.428 Y101.246 E8.03516
G1 X69.851 Y98.584 E8.18464
G1 X69.196 Y95.926 E8.33488
G1 X68.473 Y93.309 E8.48388
G1 X67.665 Y90.682 E8.63471
G1 X66.798 Y88.121 E8.78309
G1 X65.841 Y85.539 E8.93421
G1 X65.485 Y84.655 E8.98651
G1 X65.139 Y83.755 E9.03942
G1 X64.955 Y83.055 E9.07914
G1 X64.901 Y82.489 E9.11035
G1 X64.9 Y74.146 E9.5682
G1 X64.91 Y73.457 E9.60602
G1 X64.971 Y72.859 E9.63901
G1 X65.117 Y72.311 E9.67013
G1 X65.348 Y71.791 E9.70136
G1 X65.658 Y71.314 E9.73258
G1 X66.039 Y70.893 E9.76374
G0 F3600 X66.293 Y71.202
G1 F2400 X66.684 Y70.881 E9.7915
G1 X67.12 Y70.626 E9.81922
G1 X67.592 Y70.444 E9.84698
G1 X68.086 Y70.337 E9.87472
G1 X68.74 Y70.301 E9.91067
G1 X76.839 Y70.3 E10.35513
G1 X77.839 Y70.314 E10.41002
G1 X78.491 Y70.459 E10.44667
G1 X79.21 Y70.749 E10.48922
G1 X81.766 Y71.733 E10.63953
G1 X84.348 Y72.645 E10.7898
G1 X86.942 Y73.479 E10.93934
G1 X89.582 Y74.246 E11.09021
G1 X92.253 Y74.941 E11.24167
G1 X94.873 Y75.544 E11.38921
G1 X97.594 Y76.09 E11.54152
G1 X99.077 Y76.364 E11.62428
G1 X99.565 Y76.495 E11.65201
G1 X100.026 Y76.702 E11.67974
G1 X100.45 Y76.979 E11.70754
G1 X100.824 Y77.318 E11.73524
G1 X101.14 Y77.713 E11.763
G1 X101.443 Y78.246 E11.79665
G1 X102.469 Y81.287 E11.97278
G1 X103.423 Y83.862 E12.12348
G1 X104.441 Y86.39 E12.27304
G1 X105.543 Y88.915 E12.42423
G1 X106.704 Y91.386 E12.57406
G1 X107.932 Y93.817 E12.72353
G1 X109.247 Y96.245 E12.87506
G1 X110.613 Y98.607 E13.0248
G1 X112.039 Y100.921 E13.17397
G1 X113.567 Y103.247 E13.3267
G1 X115.11 Y105.459 E13.47471
G1 X116.753 Y107.677 E13.62619
G1 X118.424 Y109.805 E13.77467
G1 X119.05 Y110.584 E13.82951
G1 X119.32 Y111.011 E13.85724
G1 X119.52 Y111.476 E13.88502
G1 X119.644 Y111.966 E13.91276
G1 X119.7 Y112.527 E13.9437
G1 X119.7 Y120.808 E14.39815
G1 X119.69 Y121.535 E14.43805
G1 X119.643 Y122.038 E14.46578
G1 X119.517 Y122.528 E14.49354
G1 X119.316 Y122.992 E14.52129
G1 X119.044 Y123.418 E14.54903
G1 X118.709 Y123.797 E14.57679
G1 X118.318 Y124.117 E14.60452
G1 X117.882 Y124.372 E14.63224
G1 X117.411 Y124.556 E14.65999
G1 X116.916 Y124.662 E14.68777
G1 X116.472 Y124.699 E14.71222
G1 X108.161 Y124.7 E15.16832
G1 X107.146 Y124.685 E15.22403
G1 X106.509 Y124.531 E15.26
G1 X106.042 Y124.337 E15.28775
G1 X105.528 Y124.007 E15.32127
G1 X103.676 Y122.523 E15.45151
G1 X101.501 Y120.869 E15.60146
G1 X99.292 Y119.285 E15.75064
G1 X97.017 Y117.748 E15.90131
G1 X94.676 Y116.262 E16.05348
G1 X92.376 Y114.892 E16.2004
G1 X89.94 Y113.533 E16.35348
G1 X87.548 Y112.286 E16.50152
G1 X85.041 Y111.066 E16.65453
G1 X82.588 Y109.959 E16.80222
G1 X80.037 Y108.893 E16.95395
G1 X77.491 Y107.913 E17.10366
G1 X74.906 Y107 E17.25412
G1 X73.487 Y106.524 E17.33625
G1 X73.022 Y106.325 E17.36401
G1 X72.594 Y106.056 E17.39175
G1 X72.214 Y105.722 E17.41952
G1 X71.892 Y105.333 E17.44723
G1 X71.634 Y104.898 E17.47499
G1 X71.41 Y104.328 E17.5086
G1 X70.819 Y101.161 E17.6854
G1 X70.242 Y98.499 E17.83488
G1 X69.582 Y95.819 E17.98635
G1 X68.858 Y93.202 E18.13536
G1 X68.047 Y90.564 E18.28682
G1 X67.177 Y87.993 E18.43578
G1 X66.216 Y85.4 E18.58754
G1 X65.858 Y84.511 E18.64013
G1 X65.525 Y83.65 E18.69079
G1 X65.353 Y83.016 E18.72684
G1 X65.301 Y82.489 E18.75591
G1 X65.3 Y74.152 E19.21343
G1 X65.31 Y73.463 E19.25125
G1 X65.358 Y72.959 E19.27903
G1 X65.484 Y72.47 E19.30675
G1 X65.685 Y72.006 E19.3345
G1 X65.957 Y71.58 E19.36224
G1 X66.293 Y71.202 E19.38999
G1 F1500 E12.88999
;MESH:Sword.stl
G0 F3600 X68.924 Y72.835
G0 X68.924 Y73.924
G0 X74.938 Y76.062
G0 X75.41 Y79.925
G0 X74.925 Y79.925
;TYPE:WALL-INNER
G1 F1500 E19.38999
G1 F2400 X74.769 Y80.037 E19.40053
G1 X74.5 Y80.1 E19.41569
G1 X71.5 Y80.1 E19.58033
G1 X71.261 Y80.051 E19.59372
G1 X71.075 Y79.925 E19.60605
G1 X70.949 Y79.739 E19.61838
G1 X70.9 Y79.574 E19.62782
G1 X70.9 Y76.5 E19.79652
G1 X70.949 Y76.261 E19.80991
G1 X71.075 Y76.075 E19.82224
G1 X71.261 Y75.949 E19.83457
G1 X71.426 Y75.9 E19.84401
G1 X74.5 Y75.9 E20.01271
G1 X74.739 Y75.949 E20.0261
G1 X74.925 Y76.075 E20.03843
G1 X75.051 Y76.261 E20.05076
G1 X75.1 Y76.5 E20.06415
G1 X75.098 Y79.553 E20.2317
G1 X75.037 Y79.769 E20.24401
G1 X74.925 Y79.925 E20.25455
G0 F3600 X75.41 Y79.925
G0 X81.338 Y87.662
G0 X81.338 Y92.338
G0 X80.482 Y92.824
G0 X79.59 Y100.231
G0 X79.963 Y100.231
G1 F2400 X80.113 Y100.04 E20.26788
G1 X80.414 Y99.9 E20.2861
G1 X82.9 Y99.9 E20.42253
G1 X82.9 Y97.385 E20.56055
G1 X82.986 Y97.189 E20.5723
G1 X83.186 Y96.988 E20.58786
G1 X83.404 Y96.9 E20.60076
G1 X85.867 Y96.9 E20.73593
G1 F2264.2 X86.5 Y96.876 E20.77277
G1 F2012.6 X86.758 Y96.899 E20.78973
G1 F1897.2 X87.006 Y97.086 E20.81129
G1 F2119.2 X87.099 Y97.465 E20.83554
G1 F2400 X87.1 Y99.9 E20.96917
G1 X89.5 Y99.899 E21.10088
G1 F2274.9 X89.94 Y100.061 E21.12803
G1 X89.491 Y99.58 E21.16613
G1 F2400 X89.316 Y99.18 E21.19009
G1 X89.379 Y98.887 E21.20653
G1 X89.492 Y98.731 E21.21711
G1 X90.635 Y97.592 E21.30566
G1 X88.939 Y98.448 E21.40992
G1 X88.647 Y98.512 E21.42632
G1 X88.314 Y98.408 E21.44547
G1 X87.291 Y97.38 E21.52506
G1 F2119.2 X87.07 Y97.058 E21.54933
G1 F1897.2 X87.098 Y96.726 E21.57246
G1 X87.69 Y95.609 E21.66022
G1 X87.03 Y96.27 E21.72507
G1 X86.777 Y96.428 E21.74578
G1 F2012.6 X86.517 Y96.43 E21.76279
G1 F2264.2 X86.143 Y96.233 E21.78738
G1 F2400 X85.215 Y95.305 E21.85941
G1 X85.052 Y95 E21.87839
G1 X85.067 Y94.7 E21.89487
G1 X85.169 Y94.508 E21.9068
G1 X90.123 Y89.547 E22.29156
G1 X90.385 Y89.394 E22.30821
G1 X90.713 Y89.395 E22.32621
G1 X90.973 Y89.548 E22.34276
G1 X91.9 Y90.478 E22.41483
G1 X91.9 Y88.4 E22.52886
G1 X91.989 Y88.184 E22.54169
G1 X92.189 Y87.986 E22.55713
G1 X92.385 Y87.9 E22.56888
G1 X94.9 Y87.9 E22.7069
G1 X94.9 Y85.414 E22.84333
G1 X94.963 Y85.231 E22.85395
G1 X95.113 Y85.04 E22.86728
G1 X95.414 Y84.9 E22.88549
G1 X97.9 Y84.9 E23.02192
G1 X97.9 Y80.1 E23.28534
G1 X93.1 Y80.1 E23.54877
G1 X93.1 Y82.586 E23.68519
G1 X93.037 Y82.769 E23.69582
G1 X92.887 Y82.96 E23.70914
G1 X92.586 Y83.1 E23.72736
G1 X87.1 Y83.1 E24.02843
G1 X87.094 Y85.59 E24.16508
G1 X86.991 Y85.847 E24.18027
G1 X86.881 Y85.965 E24.18913
G1 X86.591 Y86.1 E24.20668
G1 X83.414 Y86.1 E24.38103
G1 X83.231 Y86.037 E24.39165
G1 X83.04 Y85.887 E24.40498
G1 X82.9 Y85.586 E24.4232
G1 X82.9 Y83.1 E24.55963
G1 X80.414 Y83.1 E24.69606
G1 X80.231 Y83.037 E24.70668
G1 X80.04 Y82.887 E24.72001
G1 X79.9 Y82.586 E24.73823
G1 X79.9 Y80.1 E24.87466
G1 X77.415 Y80.094 E25.01103
G1 X77.191 Y80.015 E25.02407
G1 X76.963 Y79.769 E25.04247
G1 X76.902 Y79.553 E25.05479
G1 X76.9 Y74.1 E25.35405
G1 X69.1 Y74.1 E25.78211
G1 X69.1 Y81.9 E26.21016
G1 X74.5 Y81.9 E26.50651
G1 X74.769 Y81.963 E26.52167
G1 X75.015 Y82.191 E26.54008
G1 X75.094 Y82.415 E26.55312
G1 X75.1 Y84.9 E26.68949
G1 X77.586 Y84.9 E26.82592
G1 X77.769 Y84.963 E26.83654
G1 X77.96 Y85.113 E26.84987
G1 X78.1 Y85.414 E26.86809
G1 X78.1 Y87.9 E27.00452
G1 X80.586 Y87.9 E27.14095
G1 X80.769 Y87.963 E27.15157
G1 X80.96 Y88.113 E27.1649
G1 X81.1 Y88.414 E27.18312
G1 X81.1 Y91.579 E27.35681
G1 X80.959 Y91.888 E27.37545
G1 X80.823 Y92.007 E27.38537
G1 X80.59 Y92.094 E27.39901
G1 X78.1 Y92.1 E27.53566
G1 X78.1 Y97.586 E27.83673
G1 X78.037 Y97.769 E27.84735
G1 X77.887 Y97.96 E27.86068
G1 X77.586 Y98.1 E27.8789
G1 X75.1 Y98.1 E28.01533
G1 X75.1 Y102.9 E28.27875
G1 X79.9 Y102.9 E28.54217
G1 X79.9 Y100.414 E28.6786
G1 X79.963 Y100.231 E28.68922
G0 F3600 X79.59 Y100.231
G0 X83.062 Y97.062
G0 X86.938 Y97.062
G0 X89.938 Y100.062
G0 X91.273 Y100.995
G0 X91.022 Y100.713
G1 F2400 X90.878 Y100.728 E28.69717
G1 X90.458 Y100.552 E28.72216
G1 F2258.8 X90.014 Y100.14 E28.75747
G1 X90.101 Y100.5 E28.77907
G1 F2400 X90.1 Y102.9 E28.91078
G1 F2388.1 X92.54 Y102.9 E29.04536
G1 F2307.7 X92.855 Y102.997 E29.06417
G1 F2318.8 X92.549 Y102.762 E29.08608
G1 F2400 X92.082 Y102.279 E29.12295
G1 X91.783 Y101.807 E29.15362
G1 X91.597 Y101.223 E29.18725
G1 X91.576 Y100.867 E29.20682
G1 X91.622 Y100.48 E29.22821
G1 X91.76 Y100.1 E29.2504
G1 X91.276 Y100.584 E29.28796
G1 X91.022 Y100.713 E29.30359
G0 F3600 X91.273 Y100.995
G0 X91.521 Y101.716
G0 X93.366 Y103.525
G0 X92.855 Y102.997
G1 F2222.2 X92.94 Y103.062 E29.30994
G0 F3600 X93.36 Y103.485
G0 X94.782 Y105.312
G0 X95.388 Y104.708
G1 F2046.9 X98.096 Y101.994 E29.55663
G0 F3600 X95.255 Y105.118
G0 X95.447 Y105.541
G1 F2400 X95.284 Y105.239 E29.57547
G1 X95.277 Y105.035 E29.58667
G1 F2217.1 X95.388 Y104.708 E29.60718
G1 X95.061 Y104.819 E29.6277
G1 F2400 X94.857 Y104.812 E29.6389
G1 X94.555 Y104.649 E29.65773
G1 X93.831 Y103.925 E29.71392
G1 F2171.9 X93.623 Y103.611 E29.73677
G1 F1991.7 X93.638 Y103.36 E29.75339
G1 F2008.4 X93.428 Y103.306 E29.76761
G1 F2100.7 X92.94 Y103.062 E29.80182
G1 F2162.2 X93.044 Y103.187 E29.81173
G1 F2152.5 X93.15 Y103.534 E29.83393
G1 F2285.7 X93.101 Y104.227 E29.87396
G1 F2400 X93.1 Y105.9 E29.96577
G1 X95.5 Y105.9 E30.09748
G1 F2274.9 X95.938 Y106.061 E30.1245
G1 X95.59 Y105.683 E30.15425
G1 F2400 X95.447 Y105.541 E30.16531
G0 F3600 X95.171 Y105.64
G0 X95.861 Y106.02
G0 X97.494 Y108.023
G0 X97.754 Y107.765
G1 F2400 X97.72 Y107.565 E30.17644
G1 X97.75 Y107.374 E30.18705
G1 X97.86 Y107.177 E30.19944
G1 X98.588 Y106.447 E30.25601
G1 F1927.7 X98.802 Y106.095 E30.28416
G1 F1616.2 X99.693 Y105.205 E30.38679
G1 F1649.5 X100.089 Y104.824 E30.43067
G1 F1684.2 X100.268 Y104.521 E30.45819
G1 X100.006 Y104.305 E30.48475
G1 X99.668 Y104.452 E30.51357
G1 F1649.5 X99.285 Y104.773 E30.55348
G1 F1616.2 X98.382 Y105.674 E30.65743
G1 F1927.7 X98.03 Y105.889 E30.68561
G1 F2400 X97.299 Y106.616 E30.74219
G1 X97.102 Y106.726 E30.75458
G1 X96.911 Y106.756 E30.76519
G1 X96.487 Y106.581 E30.79036
G1 F2258.8 X96.012 Y106.14 E30.82815
G1 X96.1 Y106.5 E30.84976
G1 F2400 X96.101 Y108.899 E30.98142
G1 X98.5 Y108.9 E31.11307
G1 F2253.5 X98.86 Y108.988 E31.13473
G1 X98.589 Y108.684 E31.15853
G1 F2400 X97.895 Y107.989 E31.21244
G1 X97.754 Y107.765 E31.22696
G0 F3600 X97.494 Y108.023
G0 X98.21 Y108.652
G0 X98.86 Y108.988
G1 F2133.3 X98.965 Y109.085 E31.23579
G0 F3600 X99.348 Y109.789
G0 X100.618 Y108.236
G1 F2091.5 X100.932 Y107.881 E31.26563
G1 F2201.8 X102.455 Y106.347 E31.39494
G1 F1971.3 X102.833 Y105.902 E31.43395
G0 F3600 X103.277 Y105.212
G0 X100.75 Y108.388
G0 X100.418 Y109.181
G0 X100.632 Y111.281
G0 X100.89 Y111.114
G1 F2400 X100.441 Y110.429 E31.4789
G1 X100.296 Y109.98 E31.50479
G1 X100.249 Y109.652 E31.52298
G1 X100.26 Y109.232 E31.54603
G1 X100.382 Y108.771 E31.5722
G1 F2167 X100.618 Y108.236 E31.60774
G1 X100.258 Y108.538 E31.6363
G1 F2400 X99.682 Y109.117 E31.68112
G1 X99.388 Y109.195 E31.69782
G1 F2352.9 X99.183 Y109.181 E31.70932
G1 F2222.2 X98.965 Y109.085 E31.72344
G1 F2243 X99.1 Y109.345 E31.74064
G1 F2376.2 X99.101 Y111.899 E31.8822
G1 X101.5 Y111.896 E32.01517
G1 F2042.6 X101.842 Y111.929 E32.03733
G1 F2060.1 X101.328 Y111.526 E32.07909
G1 F2400 X100.89 Y111.114 E32.11209
G0 F3600 X100.632 Y111.281
G0 X101.842 Y111.929
G1 F1561 X102.151 Y112.128 E32.1431
G0 F3600 X102.348 Y112.791
G0 X103.697 Y114.124
G0 X105.338 Y114.662
G0 X108.338 Y117.662
G0 X108.061 Y118.286
G1 F2400 X108.1 Y118.5 E32.15504
G1 X108.1 Y120.9 E32.28675
G1 X115.9 Y120.9 E32.71481
G1 X115.9 Y113.1 E33.14286
G1 X113.5 Y113.1 E33.27457
G1 X113.286 Y113.061 E33.28651
G1 X113.014 Y112.854 E33.30527
G1 X112.9 Y112.625 E33.31931
G1 X112.9 Y110.1 E33.45788
G1 X110.371 Y110.1 E33.59667
G1 X110.116 Y109.962 E33.61258
G1 X109.931 Y109.693 E33.6305
G1 X109.9 Y109.5 E33.64122
G1 X109.9 Y107.1 E33.77293
G1 X107.5 Y107.1 E33.90464
G1 X107.213 Y107.028 E33.92088
G1 X107.037 Y106.882 E33.93343
G1 X106.9 Y106.629 E33.94922
G1 X106.9 Y104.1 E34.08801
G1 X104.411 Y104.094 E34.22461
G1 X104.125 Y103.969 E34.24174
G1 X103.981 Y103.803 E34.2538
G1 X103.9 Y103.518 E34.27006
G1 X103.9 Y101.1 E34.40275
G1 F2307.7 X101.321 Y101.1 E34.54995
G1 F1904.8 X101.105 Y101.063 E34.5651
G1 F1678.3 X101.016 Y100.985 E34.57439
G1 F1983.5 X100.901 Y100.548 E34.60439
G1 F2400 X100.9 Y98.1 E34.73874
G1 F2318.8 X98.332 Y98.1 E34.8846
G1 F2000 X98.127 Y98.053 E34.89845
G1 F1912.4 X97.903 Y97.823 E34.92056
G1 F2201.8 X97.9 Y95.1 E35.08345
G1 F2400 X96.256 Y95.1 E35.17367
G1 X96.312 Y95.546 E35.19834
G1 X92.999 Y98.86 E35.4555
G1 X93.33 Y98.739 E35.47484
G1 X93.798 Y98.688 E35.50068
G1 X94.278 Y98.744 E35.5272
G1 X94.529 Y98.818 E35.54156
G1 F2394 X94.497 Y98.678 E35.54946
G1 F2382.1 X94.988 Y97.454 E35.62238
G1 F2376.2 X95.086 Y97.343 E35.63059
G1 F2388.1 X95.309 Y97.203 E35.64511
G1 F2400 X95.729 Y97.208 E35.66816
G1 X96.189 Y97.391 E35.69533
G1 X96.701 Y97.667 E35.72725
G1 X97.054 Y97.923 E35.75118
G1 F2033.9 X97.499 Y98.173 E35.78423
G1 F1784.4 X97.793 Y98.465 E35.81482
G1 F2055.7 X98.268 Y99.12 E35.86666
G1 F2400 X98.49 Y99.52 E35.89177
G1 X98.627 Y99.894 E35.91362
G1 X98.688 Y100.263 E35.93415
G1 F2347.2 X98.678 Y100.779 E35.96311
G1 F2248.2 X98.479 Y101.378 E36.00009
G1 F2114.5 X98.096 Y101.994 E36.04527
G1 F2201.8 X98.556 Y101.587 E36.08201
G1 F2400 X99.203 Y100.939 E36.13226
G1 X99.479 Y100.782 E36.14969
G1 X99.669 Y100.765 E36.16016
G1 X100.018 Y100.907 E36.18083
G1 F2162.2 X100.712 Y101.462 E36.23497
G1 X100.972 Y101.915 E36.26678
G1 F2400 X101.022 Y102.106 E36.27762
G1 X100.984 Y102.291 E36.28798
G1 X101.308 Y102.366 E36.30623
G1 X101.769 Y102.61 E36.33486
G1 X102.278 Y103.018 E36.37066
G1 X102.797 Y103.692 E36.41734
G1 X102.982 Y104.129 E36.44338
G1 X103.094 Y104.681 E36.4743
G1 X103.023 Y105.283 E36.50756
G1 F2055.7 X102.833 Y105.902 E36.54905
